(13MM_THICK_STOCK___1OV8_INCH_FLATENDMILL)
(EOM_PCB_MOUNT_DELRIN)
(T1  D=3.175 CR=0. - ZMIN=-13. - FLAT END MILL)
G0 G90 G94 G17
G21
G53 G0 Z0.

(TOP FACE)
M5
T1
S12000 M3
G4 P4.
G55
G0 X-6.854 Y-25.111
Z15.
Z5.
G1 Z0.068 F1016.
G18 G3 X-7.172 Z-0.25 I-0.317 K0.
G1 X-8.91
X-21.46 F600.
G17 G2 Y-23.655 I0. J0.728
G1 X-8.91
G3 Y-22.199 I0. J0.728
G1 X-21.46
G18 G3 X-21.777 Z0.068 I0. K0.318 F1016.
G0 Z5.
X-26.404 Y-25.111
G1 Z0.068 F1016.
G3 X-26.722 Z-0.25 I-0.318 K0.
G1 X-28.46
X-41.01 F600.
G17 G2 Y-23.655 I0. J0.728
G1 X-28.46
G3 Y-22.199 I0. J0.728
G1 X-41.01
G2 Y-20.743 I0. J0.728
G1 X-8.91
G3 Y-19.287 I0. J0.728
G1 X-41.01
G2 Y-17.831 I0. J0.728
G1 X-8.91
G3 Y-16.375 I0. J0.728
G1 X-41.01
G2 Y-14.919 I0. J0.728
G1 X-8.91
G3 Y-13.463 I0. J0.728
G1 X-41.01
G2 Y-12.007 I0. J0.728
G1 X-8.91
G3 Y-10.551 I0. J0.728
G1 X-41.01
G2 Y-9.095 I0. J0.728
G1 X-8.91
G3 Y-7.639 I0. J0.728
G1 X-41.01
G2 Y-6.183 I0. J0.728
G1 X-8.91
G3 Y-4.727 I0. J0.728
G1 X-41.01
G2 Y-3.271 I0. J0.728
G1 X-8.91
G3 Y-1.814 I0. J0.728
G1 X-41.01
G2 Y-0.358 I0. J0.728
G1 X-8.91
G3 Y1.098 I0. J0.728
G1 X-41.01
G2 Y2.554 I0. J0.728
G1 X-8.91
G3 Y4.01 I0. J0.728
G1 X-41.01
G2 Y5.466 I0. J0.728
G1 X-8.91
G3 Y6.922 I0. J0.728
G1 X-41.01
G2 Y8.378 I0. J0.728
G1 X-8.91
G3 Y9.834 I0. J0.728
G1 X-41.01
G2 Y11.29 I0. J0.728
G1 X-8.91
G3 Y12.746 I0. J0.728
G1 X-41.01
G2 Y14.202 I0. J0.728
G1 X-8.91
G3 Y15.658 I0. J0.728
G1 X-41.01
G2 Y17.114 I0. J0.728
G1 X-8.91
G3 Y18.57 I0. J0.728
G1 X-41.01
G2 Y20.026 I0. J0.728
G1 X-8.91
G3 Y21.482 I0. J0.728
G1 X-41.01
G18 G3 X-41.327 Z0.068 I0. K0.318 F1016.
G0 Z5.
X-43.065 Y-25.111
G1 Z-0.183 F1016.
G2 X-42.748 Z-0.5 I0.318 K0.
G1 X-41.01
X-28.46 F600.
G17 G3 Y-23.655 I0. J0.728
G1 X-41.01
G2 Y-22.199 I0. J0.728
G1 X-28.46
G18 G2 X-28.142 Z-0.183 I0. K0.317 F1016.
G0 Z5.
X-23.515 Y-25.111
G1 Z-0.183 F1016.
G2 X-23.198 Z-0.5 I0.317 K0.
G1 X-21.46
X-8.91 F600.
G17 G3 Y-23.655 I0. J0.728
G1 X-21.46
G2 Y-22.199 I0. J0.728
G1 X-8.91
G3 Y-20.743 I0. J0.728
G1 X-41.01
G2 Y-19.287 I0. J0.728
G1 X-8.91
G3 Y-17.831 I0. J0.728
G1 X-41.01
G2 Y-16.375 I0. J0.728
G1 X-8.91
G3 Y-14.919 I0. J0.728
G1 X-41.01
G2 Y-13.463 I0. J0.728
G1 X-8.91
G3 Y-12.007 I0. J0.728
G1 X-41.01
G2 Y-10.551 I0. J0.728
G1 X-8.91
G3 Y-9.095 I0. J0.728
G1 X-41.01
G2 Y-7.639 I0. J0.728
G1 X-8.91
G3 Y-6.183 I0. J0.728
G1 X-41.01
G2 Y-4.727 I0. J0.728
G1 X-8.91
G3 Y-3.271 I0. J0.728
G1 X-41.01
G2 Y-1.814 I0. J0.728
G1 X-8.91
G3 Y-0.358 I0. J0.728
G1 X-41.01
G2 Y1.098 I0. J0.728
G1 X-8.91
G3 Y2.554 I0. J0.728
G1 X-41.01
G2 Y4.01 I0. J0.728
G1 X-8.91
G3 Y5.466 I0. J0.728
G1 X-41.01
G2 Y6.922 I0. J0.728
G1 X-8.91
G3 Y8.378 I0. J0.728
G1 X-41.01
G2 Y9.834 I0. J0.728
G1 X-8.91
G3 Y11.29 I0. J0.728
G1 X-41.01
G2 Y12.746 I0. J0.728
G1 X-8.91
G3 Y14.202 I0. J0.728
G1 X-41.01
G2 Y15.658 I0. J0.728
G1 X-8.91
G3 Y17.114 I0. J0.728
G1 X-41.01
G2 Y18.57 I0. J0.728
G1 X-8.91
G3 Y20.026 I0. J0.728
G1 X-41.01
G2 Y21.482 I0. J0.728
G1 X-8.91
G18 G2 X-8.592 Z-0.183 I0. K0.317 F1016.
G0 Z5.
X-6.854 Y-25.111
G1 Z-0.433 F1016.
G3 X-7.172 Z-0.75 I-0.317 K0.
G1 X-8.91
X-21.46 F600.
G17 G2 Y-23.655 I0. J0.728
G1 X-8.91
G3 Y-22.199 I0. J0.728
G1 X-21.46
G18 G3 X-21.777 Z-0.433 I0. K0.317 F1016.
G0 Z5.
X-26.404 Y-25.111
G1 Z-0.433 F1016.
G3 X-26.722 Z-0.75 I-0.318 K0.
G1 X-28.46
X-41.01 F600.
G17 G2 Y-23.655 I0. J0.728
G1 X-28.46
G3 Y-22.199 I0. J0.728
G1 X-41.01
G2 Y-20.743 I0. J0.728
G1 X-8.91
G3 Y-19.287 I0. J0.728
G1 X-41.01
G2 Y-17.831 I0. J0.728
G1 X-8.91
G3 Y-16.375 I0. J0.728
G1 X-41.01
G2 Y-14.919 I0. J0.728
G1 X-8.91
G3 Y-13.463 I0. J0.728
G1 X-41.01
G2 Y-12.007 I0. J0.728
G1 X-8.91
G3 Y-10.551 I0. J0.728
G1 X-41.01
G2 Y-9.095 I0. J0.728
G1 X-8.91
G3 Y-7.639 I0. J0.728
G1 X-41.01
G2 Y-6.183 I0. J0.728
G1 X-8.91
G3 Y-4.727 I0. J0.728
G1 X-41.01
G2 Y-3.271 I0. J0.728
G1 X-8.91
G3 Y-1.814 I0. J0.728
G1 X-41.01
G2 Y-0.358 I0. J0.728
G1 X-8.91
G3 Y1.098 I0. J0.728
G1 X-41.01
G2 Y2.554 I0. J0.728
G1 X-8.91
G3 Y4.01 I0. J0.728
G1 X-41.01
G2 Y5.466 I0. J0.728
G1 X-8.91
G3 Y6.922 I0. J0.728
G1 X-41.01
G2 Y8.378 I0. J0.728
G1 X-8.91
G3 Y9.834 I0. J0.728
G1 X-41.01
G2 Y11.29 I0. J0.728
G1 X-8.91
G3 Y12.746 I0. J0.728
G1 X-41.01
G2 Y14.202 I0. J0.728
G1 X-8.91
G3 Y15.658 I0. J0.728
G1 X-41.01
G2 Y17.114 I0. J0.728
G1 X-8.91
G3 Y18.57 I0. J0.728
G1 X-41.01
G2 Y20.026 I0. J0.728
G1 X-8.91
G3 Y21.482 I0. J0.728
G1 X-41.01
G18 G3 X-41.327 Z-0.433 I0. K0.317 F1016.
G0 Z5.
X-43.065 Y-25.111
G1 Z-0.683 F1016.
G2 X-42.748 Z-1. I0.318 K0.
G1 X-41.01
X-28.46 F600.
G17 G3 Y-23.655 I0. J0.728
G1 X-41.01
G2 Y-22.199 I0. J0.728
G1 X-28.46
G18 G2 X-28.142 Z-0.683 I0. K0.317 F1016.
G0 Z5.
X-23.515 Y-25.111
G1 Z-0.683 F1016.
G2 X-23.198 Z-1. I0.317 K0.
G1 X-21.46
X-8.91 F600.
G17 G3 Y-23.655 I0. J0.728
G1 X-21.46
G2 Y-22.199 I0. J0.728
G1 X-8.91
G3 Y-20.743 I0. J0.728
G1 X-41.01
G2 Y-19.287 I0. J0.728
G1 X-8.91
G3 Y-17.831 I0. J0.728
G1 X-41.01
G2 Y-16.375 I0. J0.728
G1 X-8.91
G3 Y-14.919 I0. J0.728
G1 X-41.01
G2 Y-13.463 I0. J0.728
G1 X-8.91
G3 Y-12.007 I0. J0.728
G1 X-41.01
G2 Y-10.551 I0. J0.728
G1 X-8.91
G3 Y-9.095 I0. J0.728
G1 X-41.01
G2 Y-7.639 I0. J0.728
G1 X-8.91
G3 Y-6.183 I0. J0.728
G1 X-41.01
G2 Y-4.727 I0. J0.728
G1 X-8.91
G3 Y-3.271 I0. J0.728
G1 X-41.01
G2 Y-1.814 I0. J0.728
G1 X-8.91
G3 Y-0.358 I0. J0.728
G1 X-41.01
G2 Y1.098 I0. J0.728
G1 X-8.91
G3 Y2.554 I0. J0.728
G1 X-41.01
G2 Y4.01 I0. J0.728
G1 X-8.91
G3 Y5.466 I0. J0.728
G1 X-41.01
G2 Y6.922 I0. J0.728
G1 X-8.91
G3 Y8.378 I0. J0.728
G1 X-41.01
G2 Y9.834 I0. J0.728
G1 X-8.91
G3 Y11.29 I0. J0.728
G1 X-41.01
G2 Y12.746 I0. J0.728
G1 X-8.91
G3 Y14.202 I0. J0.728
G1 X-41.01
G2 Y15.658 I0. J0.728
G1 X-8.91
G3 Y17.114 I0. J0.728
G1 X-41.01
G2 Y18.57 I0. J0.728
G1 X-8.91
G3 Y20.026 I0. J0.728
G1 X-41.01
G2 Y21.482 I0. J0.728
G1 X-8.91
G18 G2 X-8.592 Z-0.683 I0. K0.317 F1016.
G0 Z5.
X-6.854 Y-25.111
G1 Z-0.933 F1016.
G3 X-7.172 Z-1.25 I-0.317 K0.
G1 X-8.91
X-21.46 F600.
G17 G2 Y-23.655 I0. J0.728
G1 X-8.91
G3 Y-22.199 I0. J0.728
G1 X-21.46
G18 G3 X-21.777 Z-0.933 I0. K0.317 F1016.
G0 Z5.
X-26.404 Y-25.111
G1 Z-0.933 F1016.
G3 X-26.722 Z-1.25 I-0.318 K0.
G1 X-28.46
X-41.01 F600.
G17 G2 Y-23.655 I0. J0.728
G1 X-28.46
G3 Y-22.199 I0. J0.728
G1 X-41.01
G2 Y-20.743 I0. J0.728
G1 X-8.91
G3 Y-19.287 I0. J0.728
G1 X-41.01
G2 Y-17.831 I0. J0.728
G1 X-8.91
G3 Y-16.375 I0. J0.728
G1 X-41.01
G2 Y-14.919 I0. J0.728
G1 X-8.91
G3 Y-13.463 I0. J0.728
G1 X-41.01
G2 Y-12.007 I0. J0.728
G1 X-8.91
G3 Y-10.551 I0. J0.728
G1 X-41.01
G2 Y-9.095 I0. J0.728
G1 X-8.91
G3 Y-7.639 I0. J0.728
G1 X-41.01
G2 Y-6.183 I0. J0.728
G1 X-8.91
G3 Y-4.727 I0. J0.728
G1 X-41.01
G2 Y-3.271 I0. J0.728
G1 X-8.91
G3 Y-1.814 I0. J0.728
G1 X-41.01
G2 Y-0.358 I0. J0.728
G1 X-8.91
G3 Y1.098 I0. J0.728
G1 X-41.01
G2 Y2.554 I0. J0.728
G1 X-8.91
G3 Y4.01 I0. J0.728
G1 X-41.01
G2 Y5.466 I0. J0.728
G1 X-8.91
G3 Y6.922 I0. J0.728
G1 X-41.01
G2 Y8.378 I0. J0.728
G1 X-8.91
G3 Y9.834 I0. J0.728
G1 X-41.01
G2 Y11.29 I0. J0.728
G1 X-8.91
G3 Y12.746 I0. J0.728
G1 X-41.01
G2 Y14.202 I0. J0.728
G1 X-8.91
G3 Y15.658 I0. J0.728
G1 X-41.01
G2 Y17.114 I0. J0.728
G1 X-8.91
G3 Y18.57 I0. J0.728
G1 X-41.01
G2 Y20.026 I0. J0.728
G1 X-8.91
G3 Y21.482 I0. J0.728
G1 X-41.01
G18 G3 X-41.327 Z-0.933 I0. K0.317 F1016.
G0 Z5.
X-43.065 Y-25.111
G1 Z-1.183 F1016.
G2 X-42.748 Z-1.5 I0.318 K0.
G1 X-41.01
X-28.46 F600.
G17 G3 Y-23.655 I0. J0.728
G1 X-41.01
G2 Y-22.199 I0. J0.728
G1 X-28.46
G18 G2 X-28.142 Z-1.183 I0. K0.317 F1016.
G0 Z5.
X-23.515 Y-25.111
G1 Z-1.183 F1016.
G2 X-23.198 Z-1.5 I0.317 K0.
G1 X-21.46
X-8.91 F600.
G17 G3 Y-23.655 I0. J0.728
G1 X-21.46
G2 Y-22.199 I0. J0.728
G1 X-8.91
G3 Y-20.743 I0. J0.728
G1 X-41.01
G2 Y-19.287 I0. J0.728
G1 X-8.91
G3 Y-17.831 I0. J0.728
G1 X-41.01
G2 Y-16.375 I0. J0.728
G1 X-8.91
G3 Y-14.919 I0. J0.728
G1 X-41.01
G2 Y-13.463 I0. J0.728
G1 X-8.91
G3 Y-12.007 I0. J0.728
G1 X-41.01
G2 Y-10.551 I0. J0.728
G1 X-8.91
G3 Y-9.095 I0. J0.728
G1 X-41.01
G2 Y-7.639 I0. J0.728
G1 X-8.91
G3 Y-6.183 I0. J0.728
G1 X-41.01
G2 Y-4.727 I0. J0.728
G1 X-8.91
G3 Y-3.271 I0. J0.728
G1 X-41.01
G2 Y-1.814 I0. J0.728
G1 X-8.91
G3 Y-0.358 I0. J0.728
G1 X-41.01
G2 Y1.098 I0. J0.728
G1 X-8.91
G3 Y2.554 I0. J0.728
G1 X-41.01
G2 Y4.01 I0. J0.728
G1 X-8.91
G3 Y5.466 I0. J0.728
G1 X-41.01
G2 Y6.922 I0. J0.728
G1 X-8.91
G3 Y8.378 I0. J0.728
G1 X-41.01
G2 Y9.834 I0. J0.728
G1 X-8.91
G3 Y11.29 I0. J0.728
G1 X-41.01
G2 Y12.746 I0. J0.728
G1 X-8.91
G3 Y14.202 I0. J0.728
G1 X-41.01
G2 Y15.658 I0. J0.728
G1 X-8.91
G3 Y17.114 I0. J0.728
G1 X-41.01
G2 Y18.57 I0. J0.728
G1 X-8.91
G3 Y20.026 I0. J0.728
G1 X-41.01
G2 Y21.482 I0. J0.728
G1 X-8.91
G18 G2 X-8.592 Z-1.183 I0. K0.317 F1016.
G0 Z5.
X-6.854 Y-25.111
G1 Z-1.433 F1016.
G3 X-7.172 Z-1.75 I-0.317 K0.
G1 X-8.91
X-21.46 F600.
G17 G2 Y-23.655 I0. J0.728
G1 X-8.91
G3 Y-22.199 I0. J0.728
G1 X-21.46
G18 G3 X-21.777 Z-1.433 I0. K0.317 F1016.
G0 Z5.
X-26.404 Y-25.111
G1 Z-1.433 F1016.
G3 X-26.722 Z-1.75 I-0.318 K0.
G1 X-28.46
X-41.01 F600.
G17 G2 Y-23.655 I0. J0.728
G1 X-28.46
G3 Y-22.199 I0. J0.728
G1 X-41.01
G2 Y-20.743 I0. J0.728
G1 X-8.91
G3 Y-19.287 I0. J0.728
G1 X-41.01
G2 Y-17.831 I0. J0.728
G1 X-8.91
G3 Y-16.375 I0. J0.728
G1 X-41.01
G2 Y-14.919 I0. J0.728
G1 X-8.91
G3 Y-13.463 I0. J0.728
G1 X-41.01
G2 Y-12.007 I0. J0.728
G1 X-8.91
G3 Y-10.551 I0. J0.728
G1 X-41.01
G2 Y-9.095 I0. J0.728
G1 X-8.91
G3 Y-7.639 I0. J0.728
G1 X-41.01
G2 Y-6.183 I0. J0.728
G1 X-8.91
G3 Y-4.727 I0. J0.728
G1 X-41.01
G2 Y-3.271 I0. J0.728
G1 X-8.91
G3 Y-1.814 I0. J0.728
G1 X-41.01
G2 Y-0.358 I0. J0.728
G1 X-8.91
G3 Y1.098 I0. J0.728
G1 X-41.01
G2 Y2.554 I0. J0.728
G1 X-8.91
G3 Y4.01 I0. J0.728
G1 X-41.01
G2 Y5.466 I0. J0.728
G1 X-8.91
G3 Y6.922 I0. J0.728
G1 X-41.01
G2 Y8.378 I0. J0.728
G1 X-8.91
G3 Y9.834 I0. J0.728
G1 X-41.01
G2 Y11.29 I0. J0.728
G1 X-8.91
G3 Y12.746 I0. J0.728
G1 X-41.01
G2 Y14.202 I0. J0.728
G1 X-8.91
G3 Y15.658 I0. J0.728
G1 X-41.01
G2 Y17.114 I0. J0.728
G1 X-8.91
G3 Y18.57 I0. J0.728
G1 X-41.01
G2 Y20.026 I0. J0.728
G1 X-8.91
G3 Y21.482 I0. J0.728
G1 X-41.01
G18 G3 X-41.327 Z-1.433 I0. K0.317 F1016.
G0 Z5.
X-43.065 Y-25.111
G1 Z-1.683 F1016.
G2 X-42.748 Z-2. I0.318 K0.
G1 X-41.01
X-28.46 F600.
G17 G3 Y-23.655 I0. J0.728
G1 X-41.01
G2 Y-22.199 I0. J0.728
G1 X-28.46
G18 G2 X-28.142 Z-1.683 I0. K0.317 F1016.
G0 Z5.
X-23.515 Y-25.111
G1 Z-1.683 F1016.
G2 X-23.198 Z-2. I0.317 K0.
G1 X-21.46
X-8.91 F600.
G17 G3 Y-23.655 I0. J0.728
G1 X-21.46
G2 Y-22.199 I0. J0.728
G1 X-8.91
G3 Y-20.743 I0. J0.728
G1 X-41.01
G2 Y-19.287 I0. J0.728
G1 X-8.91
G3 Y-17.831 I0. J0.728
G1 X-41.01
G2 Y-16.375 I0. J0.728
G1 X-8.91
G3 Y-14.919 I0. J0.728
G1 X-41.01
G2 Y-13.463 I0. J0.728
G1 X-8.91
G3 Y-12.007 I0. J0.728
G1 X-41.01
G2 Y-10.551 I0. J0.728
G1 X-8.91
G3 Y-9.095 I0. J0.728
G1 X-41.01
G2 Y-7.639 I0. J0.728
G1 X-8.91
G3 Y-6.183 I0. J0.728
G1 X-41.01
G2 Y-4.727 I0. J0.728
G1 X-8.91
G3 Y-3.271 I0. J0.728
G1 X-41.01
G2 Y-1.814 I0. J0.728
G1 X-8.91
G3 Y-0.358 I0. J0.728
G1 X-41.01
G2 Y1.098 I0. J0.728
G1 X-8.91
G3 Y2.554 I0. J0.728
G1 X-41.01
G2 Y4.01 I0. J0.728
G1 X-8.91
G3 Y5.466 I0. J0.728
G1 X-41.01
G2 Y6.922 I0. J0.728
G1 X-8.91
G3 Y8.378 I0. J0.728
G1 X-41.01
G2 Y9.834 I0. J0.728
G1 X-8.91
G3 Y11.29 I0. J0.728
G1 X-41.01
G2 Y12.746 I0. J0.728
G1 X-8.91
G3 Y14.202 I0. J0.728
G1 X-41.01
G2 Y15.658 I0. J0.728
G1 X-8.91
G3 Y17.114 I0. J0.728
G1 X-41.01
G2 Y18.57 I0. J0.728
G1 X-8.91
G3 Y20.026 I0. J0.728
G1 X-41.01
G2 Y21.482 I0. J0.728
G1 X-8.91
G18 G2 X-8.592 Z-1.683 I0. K0.317 F1016.
G0 Z5.
X-6.854 Y-25.111
G1 Z-1.933 F1016.
G3 X-7.172 Z-2.25 I-0.317 K0.
G1 X-8.91
X-21.46 F600.
G17 G2 Y-23.655 I0. J0.728
G1 X-8.91
G3 Y-22.199 I0. J0.728
G1 X-21.46
G18 G3 X-21.777 Z-1.933 I0. K0.317 F1016.
G0 Z5.
X-26.404 Y-25.111
G1 Z-1.933 F1016.
G3 X-26.722 Z-2.25 I-0.318 K0.
G1 X-28.46
X-41.01 F600.
G17 G2 Y-23.655 I0. J0.728
G1 X-28.46
G3 Y-22.199 I0. J0.728
G1 X-41.01
G2 Y-20.743 I0. J0.728
G1 X-8.91
G3 Y-19.287 I0. J0.728
G1 X-41.01
G2 Y-17.831 I0. J0.728
G1 X-8.91
G3 Y-16.375 I0. J0.728
G1 X-41.01
G2 Y-14.919 I0. J0.728
G1 X-8.91
G3 Y-13.463 I0. J0.728
G1 X-41.01
G2 Y-12.007 I0. J0.728
G1 X-8.91
G3 Y-10.551 I0. J0.728
G1 X-41.01
G2 Y-9.095 I0. J0.728
G1 X-8.91
G3 Y-7.639 I0. J0.728
G1 X-41.01
G2 Y-6.183 I0. J0.728
G1 X-8.91
G3 Y-4.727 I0. J0.728
G1 X-41.01
G2 Y-3.271 I0. J0.728
G1 X-8.91
G3 Y-1.814 I0. J0.728
G1 X-41.01
G2 Y-0.358 I0. J0.728
G1 X-8.91
G3 Y1.098 I0. J0.728
G1 X-41.01
G2 Y2.554 I0. J0.728
G1 X-8.91
G3 Y4.01 I0. J0.728
G1 X-41.01
G2 Y5.466 I0. J0.728
G1 X-8.91
G3 Y6.922 I0. J0.728
G1 X-41.01
G2 Y8.378 I0. J0.728
G1 X-8.91
G3 Y9.834 I0. J0.728
G1 X-41.01
G2 Y11.29 I0. J0.728
G1 X-8.91
G3 Y12.746 I0. J0.728
G1 X-41.01
G2 Y14.202 I0. J0.728
G1 X-8.91
G3 Y15.658 I0. J0.728
G1 X-41.01
G2 Y17.114 I0. J0.728
G1 X-8.91
G3 Y18.57 I0. J0.728
G1 X-41.01
G2 Y20.026 I0. J0.728
G1 X-8.91
G3 Y21.482 I0. J0.728
G1 X-41.01
G18 G3 X-41.327 Z-1.933 I0. K0.317 F1016.
G0 Z5.
X-43.065 Y-25.111
G1 Z-2.182 F1016.
G2 X-42.748 Z-2.5 I0.318 K0.
G1 X-41.01
X-28.46 F600.
G17 G3 Y-23.655 I0. J0.728
G1 X-41.01
G2 Y-22.199 I0. J0.728
G1 X-28.46
G18 G2 X-28.142 Z-2.182 I0. K0.318 F1016.
G0 Z5.
X-23.515 Y-25.111
G1 Z-2.182 F1016.
G2 X-23.198 Z-2.5 I0.317 K0.
G1 X-21.46
X-8.91 F600.
G17 G3 Y-23.655 I0. J0.728
G1 X-21.46
G2 Y-22.199 I0. J0.728
G1 X-8.91
G3 Y-20.743 I0. J0.728
G1 X-41.01
G2 Y-19.287 I0. J0.728
G1 X-8.91
G3 Y-17.831 I0. J0.728
G1 X-41.01
G2 Y-16.375 I0. J0.728
G1 X-8.91
G3 Y-14.919 I0. J0.728
G1 X-41.01
G2 Y-13.463 I0. J0.728
G1 X-8.91
G3 Y-12.007 I0. J0.728
G1 X-41.01
G2 Y-10.551 I0. J0.728
G1 X-8.91
G3 Y-9.095 I0. J0.728
G1 X-41.01
G2 Y-7.639 I0. J0.728
G1 X-8.91
G3 Y-6.183 I0. J0.728
G1 X-41.01
G2 Y-4.727 I0. J0.728
G1 X-8.91
G3 Y-3.271 I0. J0.728
G1 X-41.01
G2 Y-1.814 I0. J0.728
G1 X-8.91
G3 Y-0.358 I0. J0.728
G1 X-41.01
G2 Y1.098 I0. J0.728
G1 X-8.91
G3 Y2.554 I0. J0.728
G1 X-41.01
G2 Y4.01 I0. J0.728
G1 X-8.91
G3 Y5.466 I0. J0.728
G1 X-41.01
G2 Y6.922 I0. J0.728
G1 X-8.91
G3 Y8.378 I0. J0.728
G1 X-41.01
G2 Y9.834 I0. J0.728
G1 X-8.91
G3 Y11.29 I0. J0.728
G1 X-41.01
G2 Y12.746 I0. J0.728
G1 X-8.91
G3 Y14.202 I0. J0.728
G1 X-41.01
G2 Y15.658 I0. J0.728
G1 X-8.91
G3 Y17.114 I0. J0.728
G1 X-41.01
G2 Y18.57 I0. J0.728
G1 X-8.91
G3 Y20.026 I0. J0.728
G1 X-41.01
G2 Y21.482 I0. J0.728
G1 X-8.91
G18 G2 X-8.592 Z-2.182 I0. K0.318 F1016.
G0 Z5.
X-6.854 Y-25.111
G1 Z-2.432 F1016.
G3 X-7.172 Z-2.75 I-0.317 K0.
G1 X-8.91
X-21.46 F600.
G17 G2 Y-23.655 I0. J0.728
G1 X-8.91
G3 Y-22.199 I0. J0.728
G1 X-21.46
G18 G3 X-21.777 Z-2.432 I0. K0.318 F1016.
G0 Z5.
X-26.404 Y-25.111
G1 Z-2.432 F1016.
G3 X-26.722 Z-2.75 I-0.318 K0.
G1 X-28.46
X-41.01 F600.
G17 G2 Y-23.655 I0. J0.728
G1 X-28.46
G3 Y-22.199 I0. J0.728
G1 X-41.01
G2 Y-20.743 I0. J0.728
G1 X-8.91
G3 Y-19.287 I0. J0.728
G1 X-41.01
G2 Y-17.831 I0. J0.728
G1 X-8.91
G3 Y-16.375 I0. J0.728
G1 X-41.01
G2 Y-14.919 I0. J0.728
G1 X-8.91
G3 Y-13.463 I0. J0.728
G1 X-41.01
G2 Y-12.007 I0. J0.728
G1 X-8.91
G3 Y-10.551 I0. J0.728
G1 X-41.01
G2 Y-9.095 I0. J0.728
G1 X-8.91
G3 Y-7.639 I0. J0.728
G1 X-41.01
G2 Y-6.183 I0. J0.728
G1 X-8.91
G3 Y-4.727 I0. J0.728
G1 X-41.01
G2 Y-3.271 I0. J0.728
G1 X-8.91
G3 Y-1.814 I0. J0.728
G1 X-41.01
G2 Y-0.358 I0. J0.728
G1 X-8.91
G3 Y1.098 I0. J0.728
G1 X-41.01
G2 Y2.554 I0. J0.728
G1 X-8.91
G3 Y4.01 I0. J0.728
G1 X-41.01
G2 Y5.466 I0. J0.728
G1 X-8.91
G3 Y6.922 I0. J0.728
G1 X-41.01
G2 Y8.378 I0. J0.728
G1 X-8.91
G3 Y9.834 I0. J0.728
G1 X-41.01
G2 Y11.29 I0. J0.728
G1 X-8.91
G3 Y12.746 I0. J0.728
G1 X-41.01
G2 Y14.202 I0. J0.728
G1 X-8.91
G3 Y15.658 I0. J0.728
G1 X-41.01
G2 Y17.114 I0. J0.728
G1 X-8.91
G3 Y18.57 I0. J0.728
G1 X-41.01
G2 Y20.026 I0. J0.728
G1 X-8.91
G3 Y21.482 I0. J0.728
G1 X-41.01
G18 G3 X-41.327 Z-2.432 I0. K0.318 F1016.
G0 Z5.
X-43.065 Y-25.111
G1 Z-2.682 F1016.
G2 X-42.748 Z-3. I0.318 K0.
G1 X-41.01
X-28.46 F600.
G17 G3 Y-23.655 I0. J0.728
G1 X-41.01
G2 Y-22.199 I0. J0.728
G1 X-28.46
G18 G2 X-28.142 Z-2.682 I0. K0.318 F1016.
G0 Z5.
X-23.515 Y-25.111
G1 Z-2.682 F1016.
G2 X-23.198 Z-3. I0.317 K0.
G1 X-21.46
X-8.91 F600.
G17 G3 Y-23.655 I0. J0.728
G1 X-21.46
G2 Y-22.199 I0. J0.728
G1 X-8.91
G3 Y-20.743 I0. J0.728
G1 X-41.01
G2 Y-19.287 I0. J0.728
G1 X-8.91
G3 Y-17.831 I0. J0.728
G1 X-41.01
G2 Y-16.375 I0. J0.728
G1 X-8.91
G3 Y-14.919 I0. J0.728
G1 X-41.01
G2 Y-13.463 I0. J0.728
G1 X-8.91
G3 Y-12.007 I0. J0.728
G1 X-41.01
G2 Y-10.551 I0. J0.728
G1 X-8.91
G3 Y-9.095 I0. J0.728
G1 X-41.01
G2 Y-7.639 I0. J0.728
G1 X-8.91
G3 Y-6.183 I0. J0.728
G1 X-41.01
G2 Y-4.727 I0. J0.728
G1 X-8.91
G3 Y-3.271 I0. J0.728
G1 X-41.01
G2 Y-1.814 I0. J0.728
G1 X-8.91
G3 Y-0.358 I0. J0.728
G1 X-41.01
G2 Y1.098 I0. J0.728
G1 X-8.91
G3 Y2.554 I0. J0.728
G1 X-41.01
G2 Y4.01 I0. J0.728
G1 X-8.91
G3 Y5.466 I0. J0.728
G1 X-41.01
G2 Y6.922 I0. J0.728
G1 X-8.91
G3 Y8.378 I0. J0.728
G1 X-41.01
G2 Y9.834 I0. J0.728
G1 X-8.91
G3 Y11.29 I0. J0.728
G1 X-41.01
G2 Y12.746 I0. J0.728
G1 X-8.91
G3 Y14.202 I0. J0.728
G1 X-41.01
G2 Y15.658 I0. J0.728
G1 X-8.91
G3 Y17.114 I0. J0.728
G1 X-41.01
G2 Y18.57 I0. J0.728
G1 X-8.91
G3 Y20.026 I0. J0.728
G1 X-41.01
G2 Y21.482 I0. J0.728
G1 X-8.91
G18 G2 X-8.592 Z-2.682 I0. K0.318 F1016.
G0 Z5.
X-6.854 Y-25.111
G1 Z-2.932 F1016.
G3 X-7.172 Z-3.25 I-0.317 K0.
G1 X-8.91
X-21.46 F600.
G17 G2 Y-23.655 I0. J0.728
G1 X-8.91
G3 Y-22.199 I0. J0.728
G1 X-21.46
G18 G3 X-21.777 Z-2.932 I0. K0.318 F1016.
G0 Z5.
X-26.404 Y-25.111
G1 Z-2.932 F1016.
G3 X-26.722 Z-3.25 I-0.318 K0.
G1 X-28.46
X-41.01 F600.
G17 G2 Y-23.655 I0. J0.728
G1 X-28.46
G3 Y-22.199 I0. J0.728
G1 X-41.01
G2 Y-20.743 I0. J0.728
G1 X-8.91
G3 Y-19.287 I0. J0.728
G1 X-41.01
G2 Y-17.831 I0. J0.728
G1 X-8.91
G3 Y-16.375 I0. J0.728
G1 X-41.01
G2 Y-14.919 I0. J0.728
G1 X-8.91
G3 Y-13.463 I0. J0.728
G1 X-41.01
G2 Y-12.007 I0. J0.728
G1 X-8.91
G3 Y-10.551 I0. J0.728
G1 X-41.01
G2 Y-9.095 I0. J0.728
G1 X-8.91
G3 Y-7.639 I0. J0.728
G1 X-41.01
G2 Y-6.183 I0. J0.728
G1 X-8.91
G3 Y-4.727 I0. J0.728
G1 X-41.01
G2 Y-3.271 I0. J0.728
G1 X-8.91
G3 Y-1.814 I0. J0.728
G1 X-41.01
G2 Y-0.358 I0. J0.728
G1 X-8.91
G3 Y1.098 I0. J0.728
G1 X-41.01
G2 Y2.554 I0. J0.728
G1 X-8.91
G3 Y4.01 I0. J0.728
G1 X-41.01
G2 Y5.466 I0. J0.728
G1 X-8.91
G3 Y6.922 I0. J0.728
G1 X-41.01
G2 Y8.378 I0. J0.728
G1 X-8.91
G3 Y9.834 I0. J0.728
G1 X-41.01
G2 Y11.29 I0. J0.728
G1 X-8.91
G3 Y12.746 I0. J0.728
G1 X-41.01
G2 Y14.202 I0. J0.728
G1 X-8.91
G3 Y15.658 I0. J0.728
G1 X-41.01
G2 Y17.114 I0. J0.728
G1 X-8.91
G3 Y18.57 I0. J0.728
G1 X-41.01
G2 Y20.026 I0. J0.728
G1 X-8.91
G3 Y21.482 I0. J0.728
G1 X-41.01
G18 G3 X-41.327 Z-2.932 I0. K0.318 F1016.
G0 Z5.
X-43.065 Y-25.111
G1 Z-3.182 F1016.
G2 X-42.748 Z-3.5 I0.318 K0.
G1 X-41.01
X-28.46 F600.
G17 G3 Y-23.655 I0. J0.728
G1 X-41.01
G2 Y-22.199 I0. J0.728
G1 X-28.46
G18 G2 X-28.142 Z-3.182 I0. K0.318 F1016.
G0 Z5.
X-23.515 Y-25.111
G1 Z-3.182 F1016.
G2 X-23.198 Z-3.5 I0.317 K0.
G1 X-21.46
X-8.91 F600.
G17 G3 Y-23.655 I0. J0.728
G1 X-21.46
G2 Y-22.199 I0. J0.728
G1 X-8.91
G3 Y-20.743 I0. J0.728
G1 X-41.01
G2 Y-19.287 I0. J0.728
G1 X-8.91
G3 Y-17.831 I0. J0.728
G1 X-41.01
G2 Y-16.375 I0. J0.728
G1 X-8.91
G3 Y-14.919 I0. J0.728
G1 X-41.01
G2 Y-13.463 I0. J0.728
G1 X-8.91
G3 Y-12.007 I0. J0.728
G1 X-41.01
G2 Y-10.551 I0. J0.728
G1 X-8.91
G3 Y-9.095 I0. J0.728
G1 X-41.01
G2 Y-7.639 I0. J0.728
G1 X-8.91
G3 Y-6.183 I0. J0.728
G1 X-41.01
G2 Y-4.727 I0. J0.728
G1 X-8.91
G3 Y-3.271 I0. J0.728
G1 X-41.01
G2 Y-1.814 I0. J0.728
G1 X-8.91
G3 Y-0.358 I0. J0.728
G1 X-41.01
G2 Y1.098 I0. J0.728
G1 X-8.91
G3 Y2.554 I0. J0.728
G1 X-41.01
G2 Y4.01 I0. J0.728
G1 X-8.91
G3 Y5.466 I0. J0.728
G1 X-41.01
G2 Y6.922 I0. J0.728
G1 X-8.91
G3 Y8.378 I0. J0.728
G1 X-41.01
G2 Y9.834 I0. J0.728
G1 X-8.91
G3 Y11.29 I0. J0.728
G1 X-41.01
G2 Y12.746 I0. J0.728
G1 X-8.91
G3 Y14.202 I0. J0.728
G1 X-41.01
G2 Y15.658 I0. J0.728
G1 X-8.91
G3 Y17.114 I0. J0.728
G1 X-41.01
G2 Y18.57 I0. J0.728
G1 X-8.91
G3 Y20.026 I0. J0.728
G1 X-41.01
G2 Y21.482 I0. J0.728
G1 X-8.91
G18 G2 X-8.592 Z-3.182 I0. K0.318 F1016.
G0 Z5.
X-6.854 Y-25.111
G1 Z-3.432 F1016.
G3 X-7.172 Z-3.75 I-0.317 K0.
G1 X-8.91
X-21.46 F600.
G17 G2 Y-23.655 I0. J0.728
G1 X-8.91
G3 Y-22.199 I0. J0.728
G1 X-21.46
G18 G3 X-21.777 Z-3.432 I0. K0.318 F1016.
G0 Z5.
X-26.404 Y-25.111
G1 Z-3.432 F1016.
G3 X-26.722 Z-3.75 I-0.318 K0.
G1 X-28.46
X-41.01 F600.
G17 G2 Y-23.655 I0. J0.728
G1 X-28.46
G3 Y-22.199 I0. J0.728
G1 X-41.01
G2 Y-20.743 I0. J0.728
G1 X-8.91
G3 Y-19.287 I0. J0.728
G1 X-41.01
G2 Y-17.831 I0. J0.728
G1 X-8.91
G3 Y-16.375 I0. J0.728
G1 X-41.01
G2 Y-14.919 I0. J0.728
G1 X-8.91
G3 Y-13.463 I0. J0.728
G1 X-41.01
G2 Y-12.007 I0. J0.728
G1 X-8.91
G3 Y-10.551 I0. J0.728
G1 X-41.01
G2 Y-9.095 I0. J0.728
G1 X-8.91
G3 Y-7.639 I0. J0.728
G1 X-41.01
G2 Y-6.183 I0. J0.728
G1 X-8.91
G3 Y-4.727 I0. J0.728
G1 X-41.01
G2 Y-3.271 I0. J0.728
G1 X-8.91
G3 Y-1.814 I0. J0.728
G1 X-41.01
G2 Y-0.358 I0. J0.728
G1 X-8.91
G3 Y1.098 I0. J0.728
G1 X-41.01
G2 Y2.554 I0. J0.728
G1 X-8.91
G3 Y4.01 I0. J0.728
G1 X-41.01
G2 Y5.466 I0. J0.728
G1 X-8.91
G3 Y6.922 I0. J0.728
G1 X-41.01
G2 Y8.378 I0. J0.728
G1 X-8.91
G3 Y9.834 I0. J0.728
G1 X-41.01
G2 Y11.29 I0. J0.728
G1 X-8.91
G3 Y12.746 I0. J0.728
G1 X-41.01
G2 Y14.202 I0. J0.728
G1 X-8.91
G3 Y15.658 I0. J0.728
G1 X-41.01
G2 Y17.114 I0. J0.728
G1 X-8.91
G3 Y18.57 I0. J0.728
G1 X-41.01
G2 Y20.026 I0. J0.728
G1 X-8.91
G3 Y21.482 I0. J0.728
G1 X-41.01
G18 G3 X-41.327 Z-3.432 I0. K0.318 F1016.
G0 Z5.
X-43.065 Y-25.111
G1 Z-3.682 F1016.
G2 X-42.748 Z-4. I0.318 K0.
G1 X-41.01
X-28.46 F600.
G17 G3 Y-23.655 I0. J0.728
G1 X-41.01
G2 Y-22.199 I0. J0.728
G1 X-28.46
G18 G2 X-28.142 Z-3.682 I0. K0.318 F1016.
G0 Z5.
X-23.515 Y-25.111
G1 Z-3.682 F1016.
G2 X-23.198 Z-4. I0.317 K0.
G1 X-21.46
X-8.91 F600.
G17 G3 Y-23.655 I0. J0.728
G1 X-21.46
G2 Y-22.199 I0. J0.728
G1 X-8.91
G3 Y-20.743 I0. J0.728
G1 X-41.01
G2 Y-19.287 I0. J0.728
G1 X-8.91
G3 Y-17.831 I0. J0.728
G1 X-41.01
G2 Y-16.375 I0. J0.728
G1 X-8.91
G3 Y-14.919 I0. J0.728
G1 X-41.01
G2 Y-13.463 I0. J0.728
G1 X-8.91
G3 Y-12.007 I0. J0.728
G1 X-41.01
G2 Y-10.551 I0. J0.728
G1 X-8.91
G3 Y-9.095 I0. J0.728
G1 X-41.01
G2 Y-7.639 I0. J0.728
G1 X-8.91
G3 Y-6.183 I0. J0.728
G1 X-41.01
G2 Y-4.727 I0. J0.728
G1 X-8.91
G3 Y-3.271 I0. J0.728
G1 X-41.01
G2 Y-1.814 I0. J0.728
G1 X-8.91
G3 Y-0.358 I0. J0.728
G1 X-41.01
G2 Y1.098 I0. J0.728
G1 X-8.91
G3 Y2.554 I0. J0.728
G1 X-41.01
G2 Y4.01 I0. J0.728
G1 X-8.91
G3 Y5.466 I0. J0.728
G1 X-41.01
G2 Y6.922 I0. J0.728
G1 X-8.91
G3 Y8.378 I0. J0.728
G1 X-41.01
G2 Y9.834 I0. J0.728
G1 X-8.91
G3 Y11.29 I0. J0.728
G1 X-41.01
G2 Y12.746 I0. J0.728
G1 X-8.91
G3 Y14.202 I0. J0.728
G1 X-41.01
G2 Y15.658 I0. J0.728
G1 X-8.91
G3 Y17.114 I0. J0.728
G1 X-41.01
G2 Y18.57 I0. J0.728
G1 X-8.91
G3 Y20.026 I0. J0.728
G1 X-41.01
G2 Y21.482 I0. J0.728
G1 X-8.91
G18 G2 X-8.592 Z-3.682 I0. K0.318 F1016.
G0 Z5.
X-6.854 Y-25.111
G1 Z-3.932 F1016.
G3 X-7.172 Z-4.25 I-0.317 K0.
G1 X-8.91
X-21.46 F600.
G17 G2 Y-23.655 I0. J0.728
G1 X-8.91
G3 Y-22.199 I0. J0.728
G1 X-21.46
G18 G3 X-21.777 Z-3.932 I0. K0.318 F1016.
G0 Z5.
X-26.404 Y-25.111
G1 Z-3.932 F1016.
G3 X-26.722 Z-4.25 I-0.318 K0.
G1 X-28.46
X-41.01 F600.
G17 G2 Y-23.655 I0. J0.728
G1 X-28.46
G3 Y-22.199 I0. J0.728
G1 X-41.01
G2 Y-20.743 I0. J0.728
G1 X-8.91
G3 Y-19.287 I0. J0.728
G1 X-41.01
G2 Y-17.831 I0. J0.728
G1 X-8.91
G3 Y-16.375 I0. J0.728
G1 X-41.01
G2 Y-14.919 I0. J0.728
G1 X-8.91
G3 Y-13.463 I0. J0.728
G1 X-41.01
G2 Y-12.007 I0. J0.728
G1 X-8.91
G3 Y-10.551 I0. J0.728
G1 X-41.01
G2 Y-9.095 I0. J0.728
G1 X-8.91
G3 Y-7.639 I0. J0.728
G1 X-41.01
G2 Y-6.183 I0. J0.728
G1 X-8.91
G3 Y-4.727 I0. J0.728
G1 X-41.01
G2 Y-3.271 I0. J0.728
G1 X-8.91
G3 Y-1.814 I0. J0.728
G1 X-41.01
G2 Y-0.358 I0. J0.728
G1 X-8.91
G3 Y1.098 I0. J0.728
G1 X-41.01
G2 Y2.554 I0. J0.728
G1 X-8.91
G3 Y4.01 I0. J0.728
G1 X-41.01
G2 Y5.466 I0. J0.728
G1 X-8.91
G3 Y6.922 I0. J0.728
G1 X-41.01
G2 Y8.378 I0. J0.728
G1 X-8.91
G3 Y9.834 I0. J0.728
G1 X-41.01
G2 Y11.29 I0. J0.728
G1 X-8.91
G3 Y12.746 I0. J0.728
G1 X-41.01
G2 Y14.202 I0. J0.728
G1 X-8.91
G3 Y15.658 I0. J0.728
G1 X-41.01
G2 Y17.114 I0. J0.728
G1 X-8.91
G3 Y18.57 I0. J0.728
G1 X-41.01
G2 Y20.026 I0. J0.728
G1 X-8.91
G3 Y21.482 I0. J0.728
G1 X-41.01
G18 G3 X-41.327 Z-3.932 I0. K0.318 F1016.
G0 Z5.
X-43.065 Y-25.111
G1 Z-4.182 F1016.
G2 X-42.748 Z-4.5 I0.318 K0.
G1 X-41.01
X-28.46 F600.
G17 G3 Y-23.655 I0. J0.728
G1 X-41.01
G2 Y-22.199 I0. J0.728
G1 X-28.46
G18 G2 X-28.142 Z-4.182 I0. K0.318 F1016.
G0 Z5.
X-23.515 Y-25.111
G1 Z-4.182 F1016.
G2 X-23.198 Z-4.5 I0.317 K0.
G1 X-21.46
X-8.91 F600.
G17 G3 Y-23.655 I0. J0.728
G1 X-21.46
G2 Y-22.199 I0. J0.728
G1 X-8.91
G3 Y-20.743 I0. J0.728
G1 X-41.01
G2 Y-19.287 I0. J0.728
G1 X-8.91
G3 Y-17.831 I0. J0.728
G1 X-41.01
G2 Y-16.375 I0. J0.728
G1 X-8.91
G3 Y-14.919 I0. J0.728
G1 X-41.01
G2 Y-13.463 I0. J0.728
G1 X-8.91
G3 Y-12.007 I0. J0.728
G1 X-41.01
G2 Y-10.551 I0. J0.728
G1 X-8.91
G3 Y-9.095 I0. J0.728
G1 X-41.01
G2 Y-7.639 I0. J0.728
G1 X-8.91
G3 Y-6.183 I0. J0.728
G1 X-41.01
G2 Y-4.727 I0. J0.728
G1 X-8.91
G3 Y-3.271 I0. J0.728
G1 X-41.01
G2 Y-1.814 I0. J0.728
G1 X-8.91
G3 Y-0.358 I0. J0.728
G1 X-41.01
G2 Y1.098 I0. J0.728
G1 X-8.91
G3 Y2.554 I0. J0.728
G1 X-41.01
G2 Y4.01 I0. J0.728
G1 X-8.91
G3 Y5.466 I0. J0.728
G1 X-41.01
G2 Y6.922 I0. J0.728
G1 X-8.91
G3 Y8.378 I0. J0.728
G1 X-41.01
G2 Y9.834 I0. J0.728
G1 X-8.91
G3 Y11.29 I0. J0.728
G1 X-41.01
G2 Y12.746 I0. J0.728
G1 X-8.91
G3 Y14.202 I0. J0.728
G1 X-41.01
G2 Y15.658 I0. J0.728
G1 X-8.91
G3 Y17.114 I0. J0.728
G1 X-41.01
G2 Y18.57 I0. J0.728
G1 X-8.91
G3 Y20.026 I0. J0.728
G1 X-41.01
G2 Y21.482 I0. J0.728
G1 X-8.91
G18 G2 X-8.592 Z-4.182 I0. K0.318 F1016.
G0 Z5.
X-6.854 Y-25.111
G1 Z-4.432 F1016.
G3 X-7.172 Z-4.75 I-0.317 K0.
G1 X-8.91
X-21.46 F600.
G17 G2 Y-23.655 I0. J0.728
G1 X-8.91
G3 Y-22.199 I0. J0.728
G1 X-21.46
G18 G3 X-21.777 Z-4.432 I0. K0.318 F1016.
G0 Z5.
X-26.404 Y-25.111
G1 Z-4.432 F1016.
G3 X-26.722 Z-4.75 I-0.318 K0.
G1 X-28.46
X-41.01 F600.
G17 G2 Y-23.655 I0. J0.728
G1 X-28.46
G3 Y-22.199 I0. J0.728
G1 X-41.01
G2 Y-20.743 I0. J0.728
G1 X-8.91
G3 Y-19.287 I0. J0.728
G1 X-41.01
G2 Y-17.831 I0. J0.728
G1 X-8.91
G3 Y-16.375 I0. J0.728
G1 X-41.01
G2 Y-14.919 I0. J0.728
G1 X-8.91
G3 Y-13.463 I0. J0.728
G1 X-41.01
G2 Y-12.007 I0. J0.728
G1 X-8.91
G3 Y-10.551 I0. J0.728
G1 X-41.01
G2 Y-9.095 I0. J0.728
G1 X-8.91
G3 Y-7.639 I0. J0.728
G1 X-41.01
G2 Y-6.183 I0. J0.728
G1 X-8.91
G3 Y-4.727 I0. J0.728
G1 X-41.01
G2 Y-3.271 I0. J0.728
G1 X-8.91
G3 Y-1.814 I0. J0.728
G1 X-41.01
G2 Y-0.358 I0. J0.728
G1 X-8.91
G3 Y1.098 I0. J0.728
G1 X-41.01
G2 Y2.554 I0. J0.728
G1 X-8.91
G3 Y4.01 I0. J0.728
G1 X-41.01
G2 Y5.466 I0. J0.728
G1 X-8.91
G3 Y6.922 I0. J0.728
G1 X-41.01
G2 Y8.378 I0. J0.728
G1 X-8.91
G3 Y9.834 I0. J0.728
G1 X-41.01
G2 Y11.29 I0. J0.728
G1 X-8.91
G3 Y12.746 I0. J0.728
G1 X-41.01
G2 Y14.202 I0. J0.728
G1 X-8.91
G3 Y15.658 I0. J0.728
G1 X-41.01
G2 Y17.114 I0. J0.728
G1 X-8.91
G3 Y18.57 I0. J0.728
G1 X-41.01
G2 Y20.026 I0. J0.728
G1 X-8.91
G3 Y21.482 I0. J0.728
G1 X-41.01
G18 G3 X-41.327 Z-4.432 I0. K0.318 F1016.
G0 Z5.
X-43.065 Y-25.111
G1 Z-4.682 F1016.
G2 X-42.748 Z-5. I0.318 K0.
G1 X-41.01
X-28.46 F600.
G17 G3 Y-23.655 I0. J0.728
G1 X-41.01
G2 Y-22.199 I0. J0.728
G1 X-28.46
G18 G2 X-28.142 Z-4.682 I0. K0.318 F1016.
G0 Z5.
X-23.515 Y-25.111
G1 Z-4.682 F1016.
G2 X-23.198 Z-5. I0.317 K0.
G1 X-21.46
X-8.91 F600.
G17 G3 Y-23.655 I0. J0.728
G1 X-21.46
G2 Y-22.199 I0. J0.728
G1 X-8.91
G3 Y-20.743 I0. J0.728
G1 X-41.01
G2 Y-19.287 I0. J0.728
G1 X-8.91
G3 Y-17.831 I0. J0.728
G1 X-41.01
G2 Y-16.375 I0. J0.728
G1 X-8.91
G3 Y-14.919 I0. J0.728
G1 X-41.01
G2 Y-13.463 I0. J0.728
G1 X-8.91
G3 Y-12.007 I0. J0.728
G1 X-41.01
G2 Y-10.551 I0. J0.728
G1 X-8.91
G3 Y-9.095 I0. J0.728
G1 X-41.01
G2 Y-7.639 I0. J0.728
G1 X-8.91
G3 Y-6.183 I0. J0.728
G1 X-41.01
G2 Y-4.727 I0. J0.728
G1 X-8.91
G3 Y-3.271 I0. J0.728
G1 X-41.01
G2 Y-1.814 I0. J0.728
G1 X-8.91
G3 Y-0.358 I0. J0.728
G1 X-41.01
G2 Y1.098 I0. J0.728
G1 X-8.91
G3 Y2.554 I0. J0.728
G1 X-41.01
G2 Y4.01 I0. J0.728
G1 X-8.91
G3 Y5.466 I0. J0.728
G1 X-41.01
G2 Y6.922 I0. J0.728
G1 X-8.91
G3 Y8.378 I0. J0.728
G1 X-41.01
G2 Y9.834 I0. J0.728
G1 X-8.91
G3 Y11.29 I0. J0.728
G1 X-41.01
G2 Y12.746 I0. J0.728
G1 X-8.91
G3 Y14.202 I0. J0.728
G1 X-41.01
G2 Y15.658 I0. J0.728
G1 X-8.91
G3 Y17.114 I0. J0.728
G1 X-41.01
G2 Y18.57 I0. J0.728
G1 X-8.91
G3 Y20.026 I0. J0.728
G1 X-41.01
G2 Y21.482 I0. J0.728
G1 X-8.91
G18 G2 X-8.592 Z-4.682 I0. K0.318 F1016.
G0 Z5.
X-6.854 Y-25.111
G1 Z-4.932 F1016.
G3 X-7.172 Z-5.25 I-0.317 K0.
G1 X-8.91
X-21.46 F600.
G17 G2 Y-23.655 I0. J0.728
G1 X-8.91
G3 Y-22.199 I0. J0.728
G1 X-21.46
G18 G3 X-21.777 Z-4.932 I0. K0.318 F1016.
G0 Z5.
X-26.404 Y-25.111
G1 Z-4.932 F1016.
G3 X-26.722 Z-5.25 I-0.318 K0.
G1 X-28.46
X-41.01 F600.
G17 G2 Y-23.655 I0. J0.728
G1 X-28.46
G3 Y-22.199 I0. J0.728
G1 X-41.01
G2 Y-20.743 I0. J0.728
G1 X-8.91
G3 Y-19.287 I0. J0.728
G1 X-41.01
G2 Y-17.831 I0. J0.728
G1 X-8.91
G3 Y-16.375 I0. J0.728
G1 X-41.01
G2 Y-14.919 I0. J0.728
G1 X-8.91
G3 Y-13.463 I0. J0.728
G1 X-41.01
G2 Y-12.007 I0. J0.728
G1 X-8.91
G3 Y-10.551 I0. J0.728
G1 X-41.01
G2 Y-9.095 I0. J0.728
G1 X-8.91
G3 Y-7.639 I0. J0.728
G1 X-41.01
G2 Y-6.183 I0. J0.728
G1 X-8.91
G3 Y-4.727 I0. J0.728
G1 X-41.01
G2 Y-3.271 I0. J0.728
G1 X-8.91
G3 Y-1.814 I0. J0.728
G1 X-41.01
G2 Y-0.358 I0. J0.728
G1 X-8.91
G3 Y1.098 I0. J0.728
G1 X-41.01
G2 Y2.554 I0. J0.728
G1 X-8.91
G3 Y4.01 I0. J0.728
G1 X-41.01
G2 Y5.466 I0. J0.728
G1 X-8.91
G3 Y6.922 I0. J0.728
G1 X-41.01
G2 Y8.378 I0. J0.728
G1 X-8.91
G3 Y9.834 I0. J0.728
G1 X-41.01
G2 Y11.29 I0. J0.728
G1 X-8.91
G3 Y12.746 I0. J0.728
G1 X-41.01
G2 Y14.202 I0. J0.728
G1 X-8.91
G3 Y15.658 I0. J0.728
G1 X-41.01
G2 Y17.114 I0. J0.728
G1 X-8.91
G3 Y18.57 I0. J0.728
G1 X-41.01
G2 Y20.026 I0. J0.728
G1 X-8.91
G3 Y21.482 I0. J0.728
G1 X-41.01
G18 G3 X-41.327 Z-4.932 I0. K0.318 F1016.
G0 Z5.
X-43.065 Y-25.111
G1 Z-5.182 F1016.
G2 X-42.748 Z-5.5 I0.318 K0.
G1 X-41.01
X-28.46 F600.
G17 G3 Y-23.655 I0. J0.728
G1 X-41.01
G2 Y-22.199 I0. J0.728
G1 X-28.46
G18 G2 X-28.142 Z-5.182 I0. K0.318 F1016.
G0 Z5.
X-23.515 Y-25.111
G1 Z-5.182 F1016.
G2 X-23.198 Z-5.5 I0.317 K0.
G1 X-21.46
X-8.91 F600.
G17 G3 Y-23.655 I0. J0.728
G1 X-21.46
G2 Y-22.199 I0. J0.728
G1 X-8.91
G3 Y-20.743 I0. J0.728
G1 X-41.01
G2 Y-19.287 I0. J0.728
G1 X-8.91
G3 Y-17.831 I0. J0.728
G1 X-41.01
G2 Y-16.375 I0. J0.728
G1 X-8.91
G3 Y-14.919 I0. J0.728
G1 X-41.01
G2 Y-13.463 I0. J0.728
G1 X-8.91
G3 Y-12.007 I0. J0.728
G1 X-41.01
G2 Y-10.551 I0. J0.728
G1 X-8.91
G3 Y-9.095 I0. J0.728
G1 X-41.01
G2 Y-7.639 I0. J0.728
G1 X-8.91
G3 Y-6.183 I0. J0.728
G1 X-41.01
G2 Y-4.727 I0. J0.728
G1 X-8.91
G3 Y-3.271 I0. J0.728
G1 X-41.01
G2 Y-1.814 I0. J0.728
G1 X-8.91
G3 Y-0.358 I0. J0.728
G1 X-41.01
G2 Y1.098 I0. J0.728
G1 X-8.91
G3 Y2.554 I0. J0.728
G1 X-41.01
G2 Y4.01 I0. J0.728
G1 X-8.91
G3 Y5.466 I0. J0.728
G1 X-41.01
G2 Y6.922 I0. J0.728
G1 X-8.91
G3 Y8.378 I0. J0.728
G1 X-41.01
G2 Y9.834 I0. J0.728
G1 X-8.91
G3 Y11.29 I0. J0.728
G1 X-41.01
G2 Y12.746 I0. J0.728
G1 X-8.91
G3 Y14.202 I0. J0.728
G1 X-41.01
G2 Y15.658 I0. J0.728
G1 X-8.91
G3 Y17.114 I0. J0.728
G1 X-41.01
G2 Y18.57 I0. J0.728
G1 X-8.91
G3 Y20.026 I0. J0.728
G1 X-41.01
G2 Y21.482 I0. J0.728
G1 X-8.91
G18 G2 X-8.592 Z-5.182 I0. K0.318 F1016.
G0 Z5.
X-6.854 Y-25.111
G1 Z-5.432 F1016.
G3 X-7.172 Z-5.75 I-0.317 K0.
G1 X-8.91
X-21.46 F600.
G17 G2 Y-23.655 I0. J0.728
G1 X-8.91
G3 Y-22.199 I0. J0.728
G1 X-21.46
G18 G3 X-21.777 Z-5.432 I0. K0.318 F1016.
G0 Z5.
X-26.404 Y-25.111
G1 Z-5.432 F1016.
G3 X-26.722 Z-5.75 I-0.318 K0.
G1 X-28.46
X-41.01 F600.
G17 G2 Y-23.655 I0. J0.728
G1 X-28.46
G3 Y-22.199 I0. J0.728
G1 X-41.01
G2 Y-20.743 I0. J0.728
G1 X-8.91
G3 Y-19.287 I0. J0.728
G1 X-41.01
G2 Y-17.831 I0. J0.728
G1 X-8.91
G3 Y-16.375 I0. J0.728
G1 X-41.01
G2 Y-14.919 I0. J0.728
G1 X-8.91
G3 Y-13.463 I0. J0.728
G1 X-41.01
G2 Y-12.007 I0. J0.728
G1 X-8.91
G3 Y-10.551 I0. J0.728
G1 X-41.01
G2 Y-9.095 I0. J0.728
G1 X-8.91
G3 Y-7.639 I0. J0.728
G1 X-41.01
G2 Y-6.183 I0. J0.728
G1 X-8.91
G3 Y-4.727 I0. J0.728
G1 X-41.01
G2 Y-3.271 I0. J0.728
G1 X-8.91
G3 Y-1.814 I0. J0.728
G1 X-41.01
G2 Y-0.358 I0. J0.728
G1 X-8.91
G3 Y1.098 I0. J0.728
G1 X-41.01
G2 Y2.554 I0. J0.728
G1 X-8.91
G3 Y4.01 I0. J0.728
G1 X-41.01
G2 Y5.466 I0. J0.728
G1 X-8.91
G3 Y6.922 I0. J0.728
G1 X-41.01
G2 Y8.378 I0. J0.728
G1 X-8.91
G3 Y9.834 I0. J0.728
G1 X-41.01
G2 Y11.29 I0. J0.728
G1 X-8.91
G3 Y12.746 I0. J0.728
G1 X-41.01
G2 Y14.202 I0. J0.728
G1 X-8.91
G3 Y15.658 I0. J0.728
G1 X-41.01
G2 Y17.114 I0. J0.728
G1 X-8.91
G3 Y18.57 I0. J0.728
G1 X-41.01
G2 Y20.026 I0. J0.728
G1 X-8.91
G3 Y21.482 I0. J0.728
G1 X-41.01
G18 G3 X-41.327 Z-5.432 I0. K0.318 F1016.
G0 Z5.
X-43.065 Y-25.111
G1 Z-5.682 F1016.
G2 X-42.748 Z-6. I0.318 K0.
G1 X-41.01
X-28.46 F600.
G17 G3 Y-23.655 I0. J0.728
G1 X-41.01
G2 Y-22.199 I0. J0.728
G1 X-28.46
G18 G2 X-28.142 Z-5.682 I0. K0.318 F1016.
G0 Z5.
X-23.515 Y-25.111
G1 Z-5.682 F1016.
G2 X-23.198 Z-6. I0.317 K0.
G1 X-21.46
X-8.91 F600.
G17 G3 Y-23.655 I0. J0.728
G1 X-21.46
G2 Y-22.199 I0. J0.728
G1 X-8.91
G3 Y-20.743 I0. J0.728
G1 X-41.01
G2 Y-19.287 I0. J0.728
G1 X-8.91
G3 Y-17.831 I0. J0.728
G1 X-41.01
G2 Y-16.375 I0. J0.728
G1 X-8.91
G3 Y-14.919 I0. J0.728
G1 X-41.01
G2 Y-13.463 I0. J0.728
G1 X-8.91
G3 Y-12.007 I0. J0.728
G1 X-41.01
G2 Y-10.551 I0. J0.728
G1 X-8.91
G3 Y-9.095 I0. J0.728
G1 X-41.01
G2 Y-7.639 I0. J0.728
G1 X-8.91
G3 Y-6.183 I0. J0.728
G1 X-41.01
G2 Y-4.727 I0. J0.728
G1 X-8.91
G3 Y-3.271 I0. J0.728
G1 X-41.01
G2 Y-1.814 I0. J0.728
G1 X-8.91
G3 Y-0.358 I0. J0.728
G1 X-41.01
G2 Y1.098 I0. J0.728
G1 X-8.91
G3 Y2.554 I0. J0.728
G1 X-41.01
G2 Y4.01 I0. J0.728
G1 X-8.91
G3 Y5.466 I0. J0.728
G1 X-41.01
G2 Y6.922 I0. J0.728
G1 X-8.91
G3 Y8.378 I0. J0.728
G1 X-41.01
G2 Y9.834 I0. J0.728
G1 X-8.91
G3 Y11.29 I0. J0.728
G1 X-41.01
G2 Y12.746 I0. J0.728
G1 X-8.91
G3 Y14.202 I0. J0.728
G1 X-41.01
G2 Y15.658 I0. J0.728
G1 X-8.91
G3 Y17.114 I0. J0.728
G1 X-41.01
G2 Y18.57 I0. J0.728
G1 X-8.91
G3 Y20.026 I0. J0.728
G1 X-41.01
G2 Y21.482 I0. J0.728
G1 X-8.91
G18 G2 X-8.592 Z-5.682 I0. K0.318 F1016.
G0 Z15.
G17

(6 SCREW HOLES)
G55
G0 X-37.076 Y19.052
Z10.
Z-4.568
G1 Z-6.25 F1016.
X-37.058 Y19.034
X-37.044 Y19.039
X-37.039 Y19.052
G3 X-37.114 I-0.038 J0. F600.
X-37.039 I0.038 J0.
G1 X-37.044 Y19.066 F1016.
X-37.058 Y19.071
X-37.076 Y19.052
G0 Z5.
Z-4.818
G1 Z-6.5 F1016.
X-37.058 Y19.034
X-37.044 Y19.039
X-37.039 Y19.052
G3 X-37.114 I-0.038 J0. F600.
X-37.039 I0.038 J0.
G1 X-37.044 Y19.066 F1016.
X-37.058 Y19.071
X-37.076 Y19.052
G0 Z5.
Z-5.068
G1 Z-6.75 F1016.
X-37.058 Y19.034
X-37.044 Y19.039
X-37.039 Y19.052
G3 X-37.114 I-0.038 J0. F600.
X-37.039 I0.038 J0.
G1 X-37.044 Y19.066 F1016.
X-37.058 Y19.071
X-37.076 Y19.052
G0 Z5.
Z-5.318
G1 Z-7. F1016.
X-37.058 Y19.034
X-37.044 Y19.039
X-37.039 Y19.052
G3 X-37.114 I-0.038 J0. F600.
X-37.039 I0.038 J0.
G1 X-37.044 Y19.066 F1016.
X-37.058 Y19.071
X-37.076 Y19.052
G0 Z5.
Z-5.568
G1 Z-7.25 F1016.
X-37.058 Y19.034
X-37.044 Y19.039
X-37.039 Y19.052
G3 X-37.114 I-0.038 J0. F600.
X-37.039 I0.038 J0.
G1 X-37.044 Y19.066 F1016.
X-37.058 Y19.071
X-37.076 Y19.052
G0 Z5.
Z-5.818
G1 Z-7.5 F1016.
X-37.058 Y19.034
X-37.044 Y19.039
X-37.039 Y19.052
G3 X-37.114 I-0.038 J0. F600.
X-37.039 I0.038 J0.
G1 X-37.044 Y19.066 F1016.
X-37.058 Y19.071
X-37.076 Y19.052
G0 Z5.
Z-6.068
G1 Z-7.75 F1016.
X-37.058 Y19.034
X-37.044 Y19.039
X-37.039 Y19.052
G3 X-37.114 I-0.038 J0. F600.
X-37.039 I0.038 J0.
G1 X-37.044 Y19.066 F1016.
X-37.058 Y19.071
X-37.076 Y19.052
G0 Z5.
Z-6.318
G1 Z-8. F1016.
X-37.058 Y19.034
X-37.044 Y19.039
X-37.039 Y19.052
G3 X-37.114 I-0.038 J0. F600.
X-37.039 I0.038 J0.
G1 X-37.044 Y19.066 F1016.
X-37.058 Y19.071
X-37.076 Y19.052
G0 Z5.
Z-6.568
G1 Z-8.25 F1016.
X-37.058 Y19.034
X-37.044 Y19.039
X-37.039 Y19.052
G3 X-37.114 I-0.038 J0. F600.
X-37.039 I0.038 J0.
G1 X-37.044 Y19.066 F1016.
X-37.058 Y19.071
X-37.076 Y19.052
G0 Z5.
Z-6.818
G1 Z-8.5 F1016.
X-37.058 Y19.034
X-37.044 Y19.039
X-37.039 Y19.052
G3 X-37.114 I-0.038 J0. F600.
X-37.039 I0.038 J0.
G1 X-37.044 Y19.066 F1016.
X-37.058 Y19.071
X-37.076 Y19.052
G0 Z5.
Z-7.068
G1 Z-8.75 F1016.
X-37.058 Y19.034
X-37.044 Y19.039
X-37.039 Y19.052
G3 X-37.114 I-0.038 J0. F600.
X-37.039 I0.038 J0.
G1 X-37.044 Y19.066 F1016.
X-37.058 Y19.071
X-37.076 Y19.052
G0 Z5.
Z-7.318
G1 Z-9. F1016.
X-37.058 Y19.034
X-37.044 Y19.039
X-37.039 Y19.052
G3 X-37.114 I-0.038 J0. F600.
X-37.039 I0.038 J0.
G1 X-37.044 Y19.066 F1016.
X-37.058 Y19.071
X-37.076 Y19.052
G0 Z5.
Z-7.568
G1 Z-9.25 F1016.
X-37.058 Y19.034
X-37.044 Y19.039
X-37.039 Y19.052
G3 X-37.114 I-0.038 J0. F600.
X-37.039 I0.038 J0.
G1 X-37.044 Y19.066 F1016.
X-37.058 Y19.071
X-37.076 Y19.052
G0 Z5.
Z-7.818
G1 Z-9.5 F1016.
X-37.058 Y19.034
X-37.044 Y19.039
X-37.039 Y19.052
G3 X-37.114 I-0.038 J0. F600.
X-37.039 I0.038 J0.
G1 X-37.044 Y19.066 F1016.
X-37.058 Y19.071
X-37.076 Y19.052
G0 Z5.
Z-8.068
G1 Z-9.75 F1016.
X-37.058 Y19.034
X-37.044 Y19.039
X-37.039 Y19.052
G3 X-37.114 I-0.038 J0. F600.
X-37.039 I0.038 J0.
G1 X-37.044 Y19.066 F1016.
X-37.058 Y19.071
X-37.076 Y19.052
G0 Z5.
Z-8.318
G1 Z-10. F1016.
X-37.058 Y19.034
X-37.044 Y19.039
X-37.039 Y19.052
G3 X-37.114 I-0.038 J0. F600.
X-37.039 I0.038 J0.
G1 X-37.044 Y19.066 F1016.
X-37.058 Y19.071
X-37.076 Y19.052
G0 Z5.
Z-8.568
G1 Z-10.25 F1016.
X-37.058 Y19.034
X-37.044 Y19.039
X-37.039 Y19.052
G3 X-37.114 I-0.038 J0. F600.
X-37.039 I0.038 J0.
G1 X-37.044 Y19.066 F1016.
X-37.058 Y19.071
X-37.076 Y19.052
G0 Z5.
Z-8.818
G1 Z-10.5 F1016.
X-37.058 Y19.034
X-37.044 Y19.039
X-37.039 Y19.052
G3 X-37.114 I-0.038 J0. F600.
X-37.039 I0.038 J0.
G1 X-37.044 Y19.066 F1016.
X-37.058 Y19.071
X-37.076 Y19.052
G0 Z5.
Z-9.068
G1 Z-10.75 F1016.
X-37.058 Y19.034
X-37.044 Y19.039
X-37.039 Y19.052
G3 X-37.114 I-0.038 J0. F600.
X-37.039 I0.038 J0.
G1 X-37.044 Y19.066 F1016.
X-37.058 Y19.071
X-37.076 Y19.052
G0 Z5.
Z-9.318
G1 Z-11. F1016.
X-37.058 Y19.034
X-37.044 Y19.039
X-37.039 Y19.052
G3 X-37.114 I-0.038 J0. F600.
X-37.039 I0.038 J0.
G1 X-37.044 Y19.066 F1016.
X-37.058 Y19.071
X-37.076 Y19.052
G0 Z5.
Z-9.568
G1 Z-11.25 F1016.
X-37.058 Y19.034
X-37.044 Y19.039
X-37.039 Y19.052
G3 X-37.114 I-0.038 J0. F600.
X-37.039 I0.038 J0.
G1 X-37.044 Y19.066 F1016.
X-37.058 Y19.071
X-37.076 Y19.052
G0 Z5.
Z-9.818
G1 Z-11.5 F1016.
X-37.058 Y19.034
X-37.044 Y19.039
X-37.039 Y19.052
G3 X-37.114 I-0.038 J0. F600.
X-37.039 I0.038 J0.
G1 X-37.044 Y19.066 F1016.
X-37.058 Y19.071
X-37.076 Y19.052
G0 Z5.
Z-10.068
G1 Z-11.75 F1016.
X-37.058 Y19.034
X-37.044 Y19.039
X-37.039 Y19.052
G3 X-37.114 I-0.038 J0. F600.
X-37.039 I0.038 J0.
G1 X-37.044 Y19.066 F1016.
X-37.058 Y19.071
X-37.076 Y19.052
G0 Z5.
Z-10.318
G1 Z-12. F1016.
X-37.058 Y19.034
X-37.044 Y19.039
X-37.039 Y19.052
G3 X-37.114 I-0.038 J0. F600.
X-37.039 I0.038 J0.
G1 X-37.044 Y19.066 F1016.
X-37.058 Y19.071
X-37.076 Y19.052
G0 Z5.
Z-10.568
G1 Z-12.25 F1016.
X-37.058 Y19.034
X-37.044 Y19.039
X-37.039 Y19.052
G3 X-37.114 I-0.038 J0. F600.
X-37.039 I0.038 J0.
G1 X-37.044 Y19.066 F1016.
X-37.058 Y19.071
X-37.076 Y19.052
G0 Z5.
Z-10.818
G1 Z-12.5 F1016.
X-37.058 Y19.034
X-37.044 Y19.039
X-37.039 Y19.052
G3 X-37.114 I-0.038 J0. F600.
X-37.039 I0.038 J0.
G1 X-37.044 Y19.066 F1016.
X-37.058 Y19.071
X-37.076 Y19.052
G0 Z5.
Z-11.068
G1 Z-12.75 F1016.
X-37.058 Y19.034
X-37.044 Y19.039
X-37.039 Y19.052
G3 X-37.114 I-0.038 J0. F600.
X-37.039 I0.038 J0.
G1 X-37.044 Y19.066 F1016.
X-37.058 Y19.071
X-37.076 Y19.052
G0 Z5.
Z-11.193
G1 Z-12.875 F1016.
X-37.058 Y19.034
X-37.044 Y19.039
X-37.039 Y19.052
G3 X-37.114 I-0.038 J0. F600.
X-37.039 I0.038 J0.
G1 X-37.044 Y19.066 F1016.
X-37.058 Y19.071
X-37.076 Y19.052
G0 Z5.
Z-11.318
G1 Z-13. F1016.
X-37.058 Y19.034
X-37.044 Y19.039
X-37.039 Y19.052
G3 X-37.114 I-0.038 J0. F600.
X-37.039 I0.038 J0.
G1 X-37.044 Y19.066 F1016.
X-37.058 Y19.071
X-37.076 Y19.052
G0 Z5.
Y9.052
Z-4.568
G1 Z-6.25 F1016.
X-37.058 Y9.034
X-37.044 Y9.039
X-37.039 Y9.052
G3 X-37.114 I-0.038 J0. F600.
X-37.039 I0.038 J0.
G1 X-37.044 Y9.066 F1016.
X-37.058 Y9.071
X-37.076 Y9.052
G0 Z5.
Z-4.818
G1 Z-6.5 F1016.
X-37.058 Y9.034
X-37.044 Y9.039
X-37.039 Y9.052
G3 X-37.114 I-0.038 J0. F600.
X-37.039 I0.038 J0.
G1 X-37.044 Y9.066 F1016.
X-37.058 Y9.071
X-37.076 Y9.052
G0 Z5.
Z-5.068
G1 Z-6.75 F1016.
X-37.058 Y9.034
X-37.044 Y9.039
X-37.039 Y9.052
G3 X-37.114 I-0.038 J0. F600.
X-37.039 I0.038 J0.
G1 X-37.044 Y9.066 F1016.
X-37.058 Y9.071
X-37.076 Y9.052
G0 Z5.
Z-5.318
G1 Z-7. F1016.
X-37.058 Y9.034
X-37.044 Y9.039
X-37.039 Y9.052
G3 X-37.114 I-0.038 J0. F600.
X-37.039 I0.038 J0.
G1 X-37.044 Y9.066 F1016.
X-37.058 Y9.071
X-37.076 Y9.052
G0 Z5.
Z-5.568
G1 Z-7.25 F1016.
X-37.058 Y9.034
X-37.044 Y9.039
X-37.039 Y9.052
G3 X-37.114 I-0.038 J0. F600.
X-37.039 I0.038 J0.
G1 X-37.044 Y9.066 F1016.
X-37.058 Y9.071
X-37.076 Y9.052
G0 Z5.
Z-5.818
G1 Z-7.5 F1016.
X-37.058 Y9.034
X-37.044 Y9.039
X-37.039 Y9.052
G3 X-37.114 I-0.038 J0. F600.
X-37.039 I0.038 J0.
G1 X-37.044 Y9.066 F1016.
X-37.058 Y9.071
X-37.076 Y9.052
G0 Z5.
Z-6.068
G1 Z-7.75 F1016.
X-37.058 Y9.034
X-37.044 Y9.039
X-37.039 Y9.052
G3 X-37.114 I-0.038 J0. F600.
X-37.039 I0.038 J0.
G1 X-37.044 Y9.066 F1016.
X-37.058 Y9.071
X-37.076 Y9.052
G0 Z5.
Z-6.318
G1 Z-8. F1016.
X-37.058 Y9.034
X-37.044 Y9.039
X-37.039 Y9.052
G3 X-37.114 I-0.038 J0. F600.
X-37.039 I0.038 J0.
G1 X-37.044 Y9.066 F1016.
X-37.058 Y9.071
X-37.076 Y9.052
G0 Z5.
Z-6.568
G1 Z-8.25 F1016.
X-37.058 Y9.034
X-37.044 Y9.039
X-37.039 Y9.052
G3 X-37.114 I-0.038 J0. F600.
X-37.039 I0.038 J0.
G1 X-37.044 Y9.066 F1016.
X-37.058 Y9.071
X-37.076 Y9.052
G0 Z5.
Z-6.818
G1 Z-8.5 F1016.
X-37.058 Y9.034
X-37.044 Y9.039
X-37.039 Y9.052
G3 X-37.114 I-0.038 J0. F600.
X-37.039 I0.038 J0.
G1 X-37.044 Y9.066 F1016.
X-37.058 Y9.071
X-37.076 Y9.052
G0 Z5.
Z-7.068
G1 Z-8.75 F1016.
X-37.058 Y9.034
X-37.044 Y9.039
X-37.039 Y9.052
G3 X-37.114 I-0.038 J0. F600.
X-37.039 I0.038 J0.
G1 X-37.044 Y9.066 F1016.
X-37.058 Y9.071
X-37.076 Y9.052
G0 Z5.
Z-7.318
G1 Z-9. F1016.
X-37.058 Y9.034
X-37.044 Y9.039
X-37.039 Y9.052
G3 X-37.114 I-0.038 J0. F600.
X-37.039 I0.038 J0.
G1 X-37.044 Y9.066 F1016.
X-37.058 Y9.071
X-37.076 Y9.052
G0 Z5.
Z-7.568
G1 Z-9.25 F1016.
X-37.058 Y9.034
X-37.044 Y9.039
X-37.039 Y9.052
G3 X-37.114 I-0.038 J0. F600.
X-37.039 I0.038 J0.
G1 X-37.044 Y9.066 F1016.
X-37.058 Y9.071
X-37.076 Y9.052
G0 Z5.
Z-7.818
G1 Z-9.5 F1016.
X-37.058 Y9.034
X-37.044 Y9.039
X-37.039 Y9.052
G3 X-37.114 I-0.038 J0. F600.
X-37.039 I0.038 J0.
G1 X-37.044 Y9.066 F1016.
X-37.058 Y9.071
X-37.076 Y9.052
G0 Z5.
Z-8.068
G1 Z-9.75 F1016.
X-37.058 Y9.034
X-37.044 Y9.039
X-37.039 Y9.052
G3 X-37.114 I-0.038 J0. F600.
X-37.039 I0.038 J0.
G1 X-37.044 Y9.066 F1016.
X-37.058 Y9.071
X-37.076 Y9.052
G0 Z5.
Z-8.318
G1 Z-10. F1016.
X-37.058 Y9.034
X-37.044 Y9.039
X-37.039 Y9.052
G3 X-37.114 I-0.038 J0. F600.
X-37.039 I0.038 J0.
G1 X-37.044 Y9.066 F1016.
X-37.058 Y9.071
X-37.076 Y9.052
G0 Z5.
Z-8.568
G1 Z-10.25 F1016.
X-37.058 Y9.034
X-37.044 Y9.039
X-37.039 Y9.052
G3 X-37.114 I-0.038 J0. F600.
X-37.039 I0.038 J0.
G1 X-37.044 Y9.066 F1016.
X-37.058 Y9.071
X-37.076 Y9.052
G0 Z5.
Z-8.818
G1 Z-10.5 F1016.
X-37.058 Y9.034
X-37.044 Y9.039
X-37.039 Y9.052
G3 X-37.114 I-0.038 J0. F600.
X-37.039 I0.038 J0.
G1 X-37.044 Y9.066 F1016.
X-37.058 Y9.071
X-37.076 Y9.052
G0 Z5.
Z-9.068
G1 Z-10.75 F1016.
X-37.058 Y9.034
X-37.044 Y9.039
X-37.039 Y9.052
G3 X-37.114 I-0.038 J0. F600.
X-37.039 I0.038 J0.
G1 X-37.044 Y9.066 F1016.
X-37.058 Y9.071
X-37.076 Y9.052
G0 Z5.
Z-9.318
G1 Z-11. F1016.
X-37.058 Y9.034
X-37.044 Y9.039
X-37.039 Y9.052
G3 X-37.114 I-0.038 J0. F600.
X-37.039 I0.038 J0.
G1 X-37.044 Y9.066 F1016.
X-37.058 Y9.071
X-37.076 Y9.052
G0 Z5.
Z-9.568
G1 Z-11.25 F1016.
X-37.058 Y9.034
X-37.044 Y9.039
X-37.039 Y9.052
G3 X-37.114 I-0.038 J0. F600.
X-37.039 I0.038 J0.
G1 X-37.044 Y9.066 F1016.
X-37.058 Y9.071
X-37.076 Y9.052
G0 Z5.
Z-9.818
G1 Z-11.5 F1016.
X-37.058 Y9.034
X-37.044 Y9.039
X-37.039 Y9.052
G3 X-37.114 I-0.038 J0. F600.
X-37.039 I0.038 J0.
G1 X-37.044 Y9.066 F1016.
X-37.058 Y9.071
X-37.076 Y9.052
G0 Z5.
Z-10.068
G1 Z-11.75 F1016.
X-37.058 Y9.034
X-37.044 Y9.039
X-37.039 Y9.052
G3 X-37.114 I-0.038 J0. F600.
X-37.039 I0.038 J0.
G1 X-37.044 Y9.066 F1016.
X-37.058 Y9.071
X-37.076 Y9.052
G0 Z5.
Z-10.318
G1 Z-12. F1016.
X-37.058 Y9.034
X-37.044 Y9.039
X-37.039 Y9.052
G3 X-37.114 I-0.038 J0. F600.
X-37.039 I0.038 J0.
G1 X-37.044 Y9.066 F1016.
X-37.058 Y9.071
X-37.076 Y9.052
G0 Z5.
Z-10.568
G1 Z-12.25 F1016.
X-37.058 Y9.034
X-37.044 Y9.039
X-37.039 Y9.052
G3 X-37.114 I-0.038 J0. F600.
X-37.039 I0.038 J0.
G1 X-37.044 Y9.066 F1016.
X-37.058 Y9.071
X-37.076 Y9.052
G0 Z5.
Z-10.818
G1 Z-12.5 F1016.
X-37.058 Y9.034
X-37.044 Y9.039
X-37.039 Y9.052
G3 X-37.114 I-0.038 J0. F600.
X-37.039 I0.038 J0.
G1 X-37.044 Y9.066 F1016.
X-37.058 Y9.071
X-37.076 Y9.052
G0 Z5.
Z-11.068
G1 Z-12.75 F1016.
X-37.058 Y9.034
X-37.044 Y9.039
X-37.039 Y9.052
G3 X-37.114 I-0.038 J0. F600.
X-37.039 I0.038 J0.
G1 X-37.044 Y9.066 F1016.
X-37.058 Y9.071
X-37.076 Y9.052
G0 Z5.
Z-11.193
G1 Z-12.875 F1016.
X-37.058 Y9.034
X-37.044 Y9.039
X-37.039 Y9.052
G3 X-37.114 I-0.038 J0. F600.
X-37.039 I0.038 J0.
G1 X-37.044 Y9.066 F1016.
X-37.058 Y9.071
X-37.076 Y9.052
G0 Z5.
Z-11.318
G1 Z-13. F1016.
X-37.058 Y9.034
X-37.044 Y9.039
X-37.039 Y9.052
G3 X-37.114 I-0.038 J0. F600.
X-37.039 I0.038 J0.
G1 X-37.044 Y9.066 F1016.
X-37.058 Y9.071
X-37.076 Y9.052
G0 Z5.
Y-2.948
Z-4.568
G1 Z-6.25 F1016.
X-37.058 Y-2.966
X-37.044 Y-2.961
X-37.039 Y-2.948
G3 X-37.114 I-0.038 J0. F600.
X-37.039 I0.038 J0.
G1 X-37.044 Y-2.934 F1016.
X-37.058 Y-2.929
X-37.076 Y-2.948
G0 Z5.
Z-4.818
G1 Z-6.5 F1016.
X-37.058 Y-2.966
X-37.044 Y-2.961
X-37.039 Y-2.948
G3 X-37.114 I-0.038 J0. F600.
X-37.039 I0.038 J0.
G1 X-37.044 Y-2.934 F1016.
X-37.058 Y-2.929
X-37.076 Y-2.948
G0 Z5.
Z-5.068
G1 Z-6.75 F1016.
X-37.058 Y-2.966
X-37.044 Y-2.961
X-37.039 Y-2.948
G3 X-37.114 I-0.038 J0. F600.
X-37.039 I0.038 J0.
G1 X-37.044 Y-2.934 F1016.
X-37.058 Y-2.929
X-37.076 Y-2.948
G0 Z5.
Z-5.318
G1 Z-7. F1016.
X-37.058 Y-2.966
X-37.044 Y-2.961
X-37.039 Y-2.948
G3 X-37.114 I-0.038 J0. F600.
X-37.039 I0.038 J0.
G1 X-37.044 Y-2.934 F1016.
X-37.058 Y-2.929
X-37.076 Y-2.948
G0 Z5.
Z-5.568
G1 Z-7.25 F1016.
X-37.058 Y-2.966
X-37.044 Y-2.961
X-37.039 Y-2.948
G3 X-37.114 I-0.038 J0. F600.
X-37.039 I0.038 J0.
G1 X-37.044 Y-2.934 F1016.
X-37.058 Y-2.929
X-37.076 Y-2.948
G0 Z5.
Z-5.818
G1 Z-7.5 F1016.
X-37.058 Y-2.966
X-37.044 Y-2.961
X-37.039 Y-2.948
G3 X-37.114 I-0.038 J0. F600.
X-37.039 I0.038 J0.
G1 X-37.044 Y-2.934 F1016.
X-37.058 Y-2.929
X-37.076 Y-2.948
G0 Z5.
Z-6.068
G1 Z-7.75 F1016.
X-37.058 Y-2.966
X-37.044 Y-2.961
X-37.039 Y-2.948
G3 X-37.114 I-0.038 J0. F600.
X-37.039 I0.038 J0.
G1 X-37.044 Y-2.934 F1016.
X-37.058 Y-2.929
X-37.076 Y-2.948
G0 Z5.
Z-6.318
G1 Z-8. F1016.
X-37.058 Y-2.966
X-37.044 Y-2.961
X-37.039 Y-2.948
G3 X-37.114 I-0.038 J0. F600.
X-37.039 I0.038 J0.
G1 X-37.044 Y-2.934 F1016.
X-37.058 Y-2.929
X-37.076 Y-2.948
G0 Z5.
Z-6.568
G1 Z-8.25 F1016.
X-37.058 Y-2.966
X-37.044 Y-2.961
X-37.039 Y-2.948
G3 X-37.114 I-0.038 J0. F600.
X-37.039 I0.038 J0.
G1 X-37.044 Y-2.934 F1016.
X-37.058 Y-2.929
X-37.076 Y-2.948
G0 Z5.
Z-6.818
G1 Z-8.5 F1016.
X-37.058 Y-2.966
X-37.044 Y-2.961
X-37.039 Y-2.948
G3 X-37.114 I-0.038 J0. F600.
X-37.039 I0.038 J0.
G1 X-37.044 Y-2.934 F1016.
X-37.058 Y-2.929
X-37.076 Y-2.948
G0 Z5.
Z-7.068
G1 Z-8.75 F1016.
X-37.058 Y-2.966
X-37.044 Y-2.961
X-37.039 Y-2.948
G3 X-37.114 I-0.038 J0. F600.
X-37.039 I0.038 J0.
G1 X-37.044 Y-2.934 F1016.
X-37.058 Y-2.929
X-37.076 Y-2.948
G0 Z5.
Z-7.318
G1 Z-9. F1016.
X-37.058 Y-2.966
X-37.044 Y-2.961
X-37.039 Y-2.948
G3 X-37.114 I-0.038 J0. F600.
X-37.039 I0.038 J0.
G1 X-37.044 Y-2.934 F1016.
X-37.058 Y-2.929
X-37.076 Y-2.948
G0 Z5.
Z-7.568
G1 Z-9.25 F1016.
X-37.058 Y-2.966
X-37.044 Y-2.961
X-37.039 Y-2.948
G3 X-37.114 I-0.038 J0. F600.
X-37.039 I0.038 J0.
G1 X-37.044 Y-2.934 F1016.
X-37.058 Y-2.929
X-37.076 Y-2.948
G0 Z5.
Z-7.818
G1 Z-9.5 F1016.
X-37.058 Y-2.966
X-37.044 Y-2.961
X-37.039 Y-2.948
G3 X-37.114 I-0.038 J0. F600.
X-37.039 I0.038 J0.
G1 X-37.044 Y-2.934 F1016.
X-37.058 Y-2.929
X-37.076 Y-2.948
G0 Z5.
Z-8.068
G1 Z-9.75 F1016.
X-37.058 Y-2.966
X-37.044 Y-2.961
X-37.039 Y-2.948
G3 X-37.114 I-0.038 J0. F600.
X-37.039 I0.038 J0.
G1 X-37.044 Y-2.934 F1016.
X-37.058 Y-2.929
X-37.076 Y-2.948
G0 Z5.
Z-8.318
G1 Z-10. F1016.
X-37.058 Y-2.966
X-37.044 Y-2.961
X-37.039 Y-2.948
G3 X-37.114 I-0.038 J0. F600.
X-37.039 I0.038 J0.
G1 X-37.044 Y-2.934 F1016.
X-37.058 Y-2.929
X-37.076 Y-2.948
G0 Z5.
Z-8.568
G1 Z-10.25 F1016.
X-37.058 Y-2.966
X-37.044 Y-2.961
X-37.039 Y-2.948
G3 X-37.114 I-0.038 J0. F600.
X-37.039 I0.038 J0.
G1 X-37.044 Y-2.934 F1016.
X-37.058 Y-2.929
X-37.076 Y-2.948
G0 Z5.
Z-8.818
G1 Z-10.5 F1016.
X-37.058 Y-2.966
X-37.044 Y-2.961
X-37.039 Y-2.948
G3 X-37.114 I-0.038 J0. F600.
X-37.039 I0.038 J0.
G1 X-37.044 Y-2.934 F1016.
X-37.058 Y-2.929
X-37.076 Y-2.948
G0 Z5.
Z-9.068
G1 Z-10.75 F1016.
X-37.058 Y-2.966
X-37.044 Y-2.961
X-37.039 Y-2.948
G3 X-37.114 I-0.038 J0. F600.
X-37.039 I0.038 J0.
G1 X-37.044 Y-2.934 F1016.
X-37.058 Y-2.929
X-37.076 Y-2.948
G0 Z5.
Z-9.318
G1 Z-11. F1016.
X-37.058 Y-2.966
X-37.044 Y-2.961
X-37.039 Y-2.948
G3 X-37.114 I-0.038 J0. F600.
X-37.039 I0.038 J0.
G1 X-37.044 Y-2.934 F1016.
X-37.058 Y-2.929
X-37.076 Y-2.948
G0 Z5.
Z-9.568
G1 Z-11.25 F1016.
X-37.058 Y-2.966
X-37.044 Y-2.961
X-37.039 Y-2.948
G3 X-37.114 I-0.038 J0. F600.
X-37.039 I0.038 J0.
G1 X-37.044 Y-2.934 F1016.
X-37.058 Y-2.929
X-37.076 Y-2.948
G0 Z5.
Z-9.818
G1 Z-11.5 F1016.
X-37.058 Y-2.966
X-37.044 Y-2.961
X-37.039 Y-2.948
G3 X-37.114 I-0.038 J0. F600.
X-37.039 I0.038 J0.
G1 X-37.044 Y-2.934 F1016.
X-37.058 Y-2.929
X-37.076 Y-2.948
G0 Z5.
Z-10.068
G1 Z-11.75 F1016.
X-37.058 Y-2.966
X-37.044 Y-2.961
X-37.039 Y-2.948
G3 X-37.114 I-0.038 J0. F600.
X-37.039 I0.038 J0.
G1 X-37.044 Y-2.934 F1016.
X-37.058 Y-2.929
X-37.076 Y-2.948
G0 Z5.
Z-10.318
G1 Z-12. F1016.
X-37.058 Y-2.966
X-37.044 Y-2.961
X-37.039 Y-2.948
G3 X-37.114 I-0.038 J0. F600.
X-37.039 I0.038 J0.
G1 X-37.044 Y-2.934 F1016.
X-37.058 Y-2.929
X-37.076 Y-2.948
G0 Z5.
Z-10.568
G1 Z-12.25 F1016.
X-37.058 Y-2.966
X-37.044 Y-2.961
X-37.039 Y-2.948
G3 X-37.114 I-0.038 J0. F600.
X-37.039 I0.038 J0.
G1 X-37.044 Y-2.934 F1016.
X-37.058 Y-2.929
X-37.076 Y-2.948
G0 Z5.
Z-10.818
G1 Z-12.5 F1016.
X-37.058 Y-2.966
X-37.044 Y-2.961
X-37.039 Y-2.948
G3 X-37.114 I-0.038 J0. F600.
X-37.039 I0.038 J0.
G1 X-37.044 Y-2.934 F1016.
X-37.058 Y-2.929
X-37.076 Y-2.948
G0 Z5.
Z-11.068
G1 Z-12.75 F1016.
X-37.058 Y-2.966
X-37.044 Y-2.961
X-37.039 Y-2.948
G3 X-37.114 I-0.038 J0. F600.
X-37.039 I0.038 J0.
G1 X-37.044 Y-2.934 F1016.
X-37.058 Y-2.929
X-37.076 Y-2.948
G0 Z5.
Z-11.193
G1 Z-12.875 F1016.
X-37.058 Y-2.966
X-37.044 Y-2.961
X-37.039 Y-2.948
G3 X-37.114 I-0.038 J0. F600.
X-37.039 I0.038 J0.
G1 X-37.044 Y-2.934 F1016.
X-37.058 Y-2.929
X-37.076 Y-2.948
G0 Z5.
Z-11.318
G1 Z-13. F1016.
X-37.058 Y-2.966
X-37.044 Y-2.961
X-37.039 Y-2.948
G3 X-37.114 I-0.038 J0. F600.
X-37.039 I0.038 J0.
G1 X-37.044 Y-2.934 F1016.
X-37.058 Y-2.929
X-37.076 Y-2.948
G0 Z5.
X-36.91 Y-20.995
Z-4.568
G1 Z-6.25 F1016.
X-36.891 Y-21.013
X-36.878 Y-21.008
X-36.872 Y-20.995
G3 X-36.947 I-0.037 J0. F600.
X-36.872 I0.037 J0.
G1 X-36.878 Y-20.981 F1016.
X-36.891 Y-20.976
X-36.91 Y-20.995
G0 Z5.
Z-4.818
G1 Z-6.5 F1016.
X-36.891 Y-21.013
X-36.878 Y-21.008
X-36.872 Y-20.995
G3 X-36.947 I-0.037 J0. F600.
X-36.872 I0.037 J0.
G1 X-36.878 Y-20.981 F1016.
X-36.891 Y-20.976
X-36.91 Y-20.995
G0 Z5.
Z-5.068
G1 Z-6.75 F1016.
X-36.891 Y-21.013
X-36.878 Y-21.008
X-36.872 Y-20.995
G3 X-36.947 I-0.037 J0. F600.
X-36.872 I0.037 J0.
G1 X-36.878 Y-20.981 F1016.
X-36.891 Y-20.976
X-36.91 Y-20.995
G0 Z5.
Z-5.318
G1 Z-7. F1016.
X-36.891 Y-21.013
X-36.878 Y-21.008
X-36.872 Y-20.995
G3 X-36.947 I-0.037 J0. F600.
X-36.872 I0.037 J0.
G1 X-36.878 Y-20.981 F1016.
X-36.891 Y-20.976
X-36.91 Y-20.995
G0 Z5.
Z-5.568
G1 Z-7.25 F1016.
X-36.891 Y-21.013
X-36.878 Y-21.008
X-36.872 Y-20.995
G3 X-36.947 I-0.037 J0. F600.
X-36.872 I0.037 J0.
G1 X-36.878 Y-20.981 F1016.
X-36.891 Y-20.976
X-36.91 Y-20.995
G0 Z5.
Z-5.818
G1 Z-7.5 F1016.
X-36.891 Y-21.013
X-36.878 Y-21.008
X-36.872 Y-20.995
G3 X-36.947 I-0.037 J0. F600.
X-36.872 I0.037 J0.
G1 X-36.878 Y-20.981 F1016.
X-36.891 Y-20.976
X-36.91 Y-20.995
G0 Z5.
Z-6.068
G1 Z-7.75 F1016.
X-36.891 Y-21.013
X-36.878 Y-21.008
X-36.872 Y-20.995
G3 X-36.947 I-0.037 J0. F600.
X-36.872 I0.037 J0.
G1 X-36.878 Y-20.981 F1016.
X-36.891 Y-20.976
X-36.91 Y-20.995
G0 Z5.
Z-6.318
G1 Z-8. F1016.
X-36.891 Y-21.013
X-36.878 Y-21.008
X-36.872 Y-20.995
G3 X-36.947 I-0.037 J0. F600.
X-36.872 I0.037 J0.
G1 X-36.878 Y-20.981 F1016.
X-36.891 Y-20.976
X-36.91 Y-20.995
G0 Z5.
Z-6.568
G1 Z-8.25 F1016.
X-36.891 Y-21.013
X-36.878 Y-21.008
X-36.872 Y-20.995
G3 X-36.947 I-0.037 J0. F600.
X-36.872 I0.037 J0.
G1 X-36.878 Y-20.981 F1016.
X-36.891 Y-20.976
X-36.91 Y-20.995
G0 Z5.
Z-6.818
G1 Z-8.5 F1016.
X-36.891 Y-21.013
X-36.878 Y-21.008
X-36.872 Y-20.995
G3 X-36.947 I-0.037 J0. F600.
X-36.872 I0.037 J0.
G1 X-36.878 Y-20.981 F1016.
X-36.891 Y-20.976
X-36.91 Y-20.995
G0 Z5.
Z-7.068
G1 Z-8.75 F1016.
X-36.891 Y-21.013
X-36.878 Y-21.008
X-36.872 Y-20.995
G3 X-36.947 I-0.037 J0. F600.
X-36.872 I0.037 J0.
G1 X-36.878 Y-20.981 F1016.
X-36.891 Y-20.976
X-36.91 Y-20.995
G0 Z5.
Z-7.318
G1 Z-9. F1016.
X-36.891 Y-21.013
X-36.878 Y-21.008
X-36.872 Y-20.995
G3 X-36.947 I-0.037 J0. F600.
X-36.872 I0.037 J0.
G1 X-36.878 Y-20.981 F1016.
X-36.891 Y-20.976
X-36.91 Y-20.995
G0 Z5.
Z-7.568
G1 Z-9.25 F1016.
X-36.891 Y-21.013
X-36.878 Y-21.008
X-36.872 Y-20.995
G3 X-36.947 I-0.037 J0. F600.
X-36.872 I0.037 J0.
G1 X-36.878 Y-20.981 F1016.
X-36.891 Y-20.976
X-36.91 Y-20.995
G0 Z5.
Z-7.818
G1 Z-9.5 F1016.
X-36.891 Y-21.013
X-36.878 Y-21.008
X-36.872 Y-20.995
G3 X-36.947 I-0.037 J0. F600.
X-36.872 I0.037 J0.
G1 X-36.878 Y-20.981 F1016.
X-36.891 Y-20.976
X-36.91 Y-20.995
G0 Z5.
Z-8.068
G1 Z-9.75 F1016.
X-36.891 Y-21.013
X-36.878 Y-21.008
X-36.872 Y-20.995
G3 X-36.947 I-0.037 J0. F600.
X-36.872 I0.037 J0.
G1 X-36.878 Y-20.981 F1016.
X-36.891 Y-20.976
X-36.91 Y-20.995
G0 Z5.
Z-8.318
G1 Z-10. F1016.
X-36.891 Y-21.013
X-36.878 Y-21.008
X-36.872 Y-20.995
G3 X-36.947 I-0.037 J0. F600.
X-36.872 I0.037 J0.
G1 X-36.878 Y-20.981 F1016.
X-36.891 Y-20.976
X-36.91 Y-20.995
G0 Z5.
Z-8.568
G1 Z-10.25 F1016.
X-36.891 Y-21.013
X-36.878 Y-21.008
X-36.872 Y-20.995
G3 X-36.947 I-0.037 J0. F600.
X-36.872 I0.037 J0.
G1 X-36.878 Y-20.981 F1016.
X-36.891 Y-20.976
X-36.91 Y-20.995
G0 Z5.
Z-8.818
G1 Z-10.5 F1016.
X-36.891 Y-21.013
X-36.878 Y-21.008
X-36.872 Y-20.995
G3 X-36.947 I-0.037 J0. F600.
X-36.872 I0.037 J0.
G1 X-36.878 Y-20.981 F1016.
X-36.891 Y-20.976
X-36.91 Y-20.995
G0 Z5.
Z-9.068
G1 Z-10.75 F1016.
X-36.891 Y-21.013
X-36.878 Y-21.008
X-36.872 Y-20.995
G3 X-36.947 I-0.037 J0. F600.
X-36.872 I0.037 J0.
G1 X-36.878 Y-20.981 F1016.
X-36.891 Y-20.976
X-36.91 Y-20.995
G0 Z5.
Z-9.318
G1 Z-11. F1016.
X-36.891 Y-21.013
X-36.878 Y-21.008
X-36.872 Y-20.995
G3 X-36.947 I-0.037 J0. F600.
X-36.872 I0.037 J0.
G1 X-36.878 Y-20.981 F1016.
X-36.891 Y-20.976
X-36.91 Y-20.995
G0 Z5.
Z-9.568
G1 Z-11.25 F1016.
X-36.891 Y-21.013
X-36.878 Y-21.008
X-36.872 Y-20.995
G3 X-36.947 I-0.037 J0. F600.
X-36.872 I0.037 J0.
G1 X-36.878 Y-20.981 F1016.
X-36.891 Y-20.976
X-36.91 Y-20.995
G0 Z5.
Z-9.818
G1 Z-11.5 F1016.
X-36.891 Y-21.013
X-36.878 Y-21.008
X-36.872 Y-20.995
G3 X-36.947 I-0.037 J0. F600.
X-36.872 I0.037 J0.
G1 X-36.878 Y-20.981 F1016.
X-36.891 Y-20.976
X-36.91 Y-20.995
G0 Z5.
Z-10.068
G1 Z-11.75 F1016.
X-36.891 Y-21.013
X-36.878 Y-21.008
X-36.872 Y-20.995
G3 X-36.947 I-0.037 J0. F600.
X-36.872 I0.037 J0.
G1 X-36.878 Y-20.981 F1016.
X-36.891 Y-20.976
X-36.91 Y-20.995
G0 Z5.
Z-10.318
G1 Z-12. F1016.
X-36.891 Y-21.013
X-36.878 Y-21.008
X-36.872 Y-20.995
G3 X-36.947 I-0.037 J0. F600.
X-36.872 I0.037 J0.
G1 X-36.878 Y-20.981 F1016.
X-36.891 Y-20.976
X-36.91 Y-20.995
G0 Z5.
Z-10.568
G1 Z-12.25 F1016.
X-36.891 Y-21.013
X-36.878 Y-21.008
X-36.872 Y-20.995
G3 X-36.947 I-0.037 J0. F600.
X-36.872 I0.037 J0.
G1 X-36.878 Y-20.981 F1016.
X-36.891 Y-20.976
X-36.91 Y-20.995
G0 Z5.
Z-10.818
G1 Z-12.5 F1016.
X-36.891 Y-21.013
X-36.878 Y-21.008
X-36.872 Y-20.995
G3 X-36.947 I-0.037 J0. F600.
X-36.872 I0.037 J0.
G1 X-36.878 Y-20.981 F1016.
X-36.891 Y-20.976
X-36.91 Y-20.995
G0 Z5.
Z-11.068
G1 Z-12.75 F1016.
X-36.891 Y-21.013
X-36.878 Y-21.008
X-36.872 Y-20.995
G3 X-36.947 I-0.037 J0. F600.
X-36.872 I0.037 J0.
G1 X-36.878 Y-20.981 F1016.
X-36.891 Y-20.976
X-36.91 Y-20.995
G0 Z5.
Z-11.193
G1 Z-12.875 F1016.
X-36.891 Y-21.013
X-36.878 Y-21.008
X-36.872 Y-20.995
G3 X-36.947 I-0.037 J0. F600.
X-36.872 I0.037 J0.
G1 X-36.878 Y-20.981 F1016.
X-36.891 Y-20.976
X-36.91 Y-20.995
G0 Z5.
Z-11.318
G1 Z-13. F1016.
X-36.891 Y-21.013
X-36.878 Y-21.008
X-36.872 Y-20.995
G3 X-36.947 I-0.037 J0. F600.
X-36.872 I0.037 J0.
G1 X-36.878 Y-20.981 F1016.
X-36.891 Y-20.976
X-36.91 Y-20.995
G0 Z5.
X-13.01
Z-4.568
G1 Z-6.25 F1016.
X-12.991 Y-21.013
X-12.978 Y-21.008
X-12.972 Y-20.995
G3 X-13.047 I-0.037 J0. F600.
X-12.972 I0.037 J0.
G1 X-12.978 Y-20.981 F1016.
X-12.991 Y-20.976
X-13.01 Y-20.995
G0 Z5.
Z-4.818
G1 Z-6.5 F1016.
X-12.991 Y-21.013
X-12.978 Y-21.008
X-12.972 Y-20.995
G3 X-13.047 I-0.037 J0. F600.
X-12.972 I0.037 J0.
G1 X-12.978 Y-20.981 F1016.
X-12.991 Y-20.976
X-13.01 Y-20.995
G0 Z5.
Z-5.068
G1 Z-6.75 F1016.
X-12.991 Y-21.013
X-12.978 Y-21.008
X-12.972 Y-20.995
G3 X-13.047 I-0.037 J0. F600.
X-12.972 I0.037 J0.
G1 X-12.978 Y-20.981 F1016.
X-12.991 Y-20.976
X-13.01 Y-20.995
G0 Z5.
Z-5.318
G1 Z-7. F1016.
X-12.991 Y-21.013
X-12.978 Y-21.008
X-12.972 Y-20.995
G3 X-13.047 I-0.037 J0. F600.
X-12.972 I0.037 J0.
G1 X-12.978 Y-20.981 F1016.
X-12.991 Y-20.976
X-13.01 Y-20.995
G0 Z5.
Z-5.568
G1 Z-7.25 F1016.
X-12.991 Y-21.013
X-12.978 Y-21.008
X-12.972 Y-20.995
G3 X-13.047 I-0.037 J0. F600.
X-12.972 I0.037 J0.
G1 X-12.978 Y-20.981 F1016.
X-12.991 Y-20.976
X-13.01 Y-20.995
G0 Z5.
Z-5.818
G1 Z-7.5 F1016.
X-12.991 Y-21.013
X-12.978 Y-21.008
X-12.972 Y-20.995
G3 X-13.047 I-0.037 J0. F600.
X-12.972 I0.037 J0.
G1 X-12.978 Y-20.981 F1016.
X-12.991 Y-20.976
X-13.01 Y-20.995
G0 Z5.
Z-6.068
G1 Z-7.75 F1016.
X-12.991 Y-21.013
X-12.978 Y-21.008
X-12.972 Y-20.995
G3 X-13.047 I-0.037 J0. F600.
X-12.972 I0.037 J0.
G1 X-12.978 Y-20.981 F1016.
X-12.991 Y-20.976
X-13.01 Y-20.995
G0 Z5.
Z-6.318
G1 Z-8. F1016.
X-12.991 Y-21.013
X-12.978 Y-21.008
X-12.972 Y-20.995
G3 X-13.047 I-0.037 J0. F600.
X-12.972 I0.037 J0.
G1 X-12.978 Y-20.981 F1016.
X-12.991 Y-20.976
X-13.01 Y-20.995
G0 Z5.
Z-6.568
G1 Z-8.25 F1016.
X-12.991 Y-21.013
X-12.978 Y-21.008
X-12.972 Y-20.995
G3 X-13.047 I-0.037 J0. F600.
X-12.972 I0.037 J0.
G1 X-12.978 Y-20.981 F1016.
X-12.991 Y-20.976
X-13.01 Y-20.995
G0 Z5.
Z-6.818
G1 Z-8.5 F1016.
X-12.991 Y-21.013
X-12.978 Y-21.008
X-12.972 Y-20.995
G3 X-13.047 I-0.037 J0. F600.
X-12.972 I0.037 J0.
G1 X-12.978 Y-20.981 F1016.
X-12.991 Y-20.976
X-13.01 Y-20.995
G0 Z5.
Z-7.068
G1 Z-8.75 F1016.
X-12.991 Y-21.013
X-12.978 Y-21.008
X-12.972 Y-20.995
G3 X-13.047 I-0.037 J0. F600.
X-12.972 I0.037 J0.
G1 X-12.978 Y-20.981 F1016.
X-12.991 Y-20.976
X-13.01 Y-20.995
G0 Z5.
Z-7.318
G1 Z-9. F1016.
X-12.991 Y-21.013
X-12.978 Y-21.008
X-12.972 Y-20.995
G3 X-13.047 I-0.037 J0. F600.
X-12.972 I0.037 J0.
G1 X-12.978 Y-20.981 F1016.
X-12.991 Y-20.976
X-13.01 Y-20.995
G0 Z5.
Z-7.568
G1 Z-9.25 F1016.
X-12.991 Y-21.013
X-12.978 Y-21.008
X-12.972 Y-20.995
G3 X-13.047 I-0.037 J0. F600.
X-12.972 I0.037 J0.
G1 X-12.978 Y-20.981 F1016.
X-12.991 Y-20.976
X-13.01 Y-20.995
G0 Z5.
Z-7.818
G1 Z-9.5 F1016.
X-12.991 Y-21.013
X-12.978 Y-21.008
X-12.972 Y-20.995
G3 X-13.047 I-0.037 J0. F600.
X-12.972 I0.037 J0.
G1 X-12.978 Y-20.981 F1016.
X-12.991 Y-20.976
X-13.01 Y-20.995
G0 Z5.
Z-8.068
G1 Z-9.75 F1016.
X-12.991 Y-21.013
X-12.978 Y-21.008
X-12.972 Y-20.995
G3 X-13.047 I-0.037 J0. F600.
X-12.972 I0.037 J0.
G1 X-12.978 Y-20.981 F1016.
X-12.991 Y-20.976
X-13.01 Y-20.995
G0 Z5.
Z-8.318
G1 Z-10. F1016.
X-12.991 Y-21.013
X-12.978 Y-21.008
X-12.972 Y-20.995
G3 X-13.047 I-0.037 J0. F600.
X-12.972 I0.037 J0.
G1 X-12.978 Y-20.981 F1016.
X-12.991 Y-20.976
X-13.01 Y-20.995
G0 Z5.
Z-8.568
G1 Z-10.25 F1016.
X-12.991 Y-21.013
X-12.978 Y-21.008
X-12.972 Y-20.995
G3 X-13.047 I-0.037 J0. F600.
X-12.972 I0.037 J0.
G1 X-12.978 Y-20.981 F1016.
X-12.991 Y-20.976
X-13.01 Y-20.995
G0 Z5.
Z-8.818
G1 Z-10.5 F1016.
X-12.991 Y-21.013
X-12.978 Y-21.008
X-12.972 Y-20.995
G3 X-13.047 I-0.037 J0. F600.
X-12.972 I0.037 J0.
G1 X-12.978 Y-20.981 F1016.
X-12.991 Y-20.976
X-13.01 Y-20.995
G0 Z5.
Z-9.068
G1 Z-10.75 F1016.
X-12.991 Y-21.013
X-12.978 Y-21.008
X-12.972 Y-20.995
G3 X-13.047 I-0.037 J0. F600.
X-12.972 I0.037 J0.
G1 X-12.978 Y-20.981 F1016.
X-12.991 Y-20.976
X-13.01 Y-20.995
G0 Z5.
Z-9.318
G1 Z-11. F1016.
X-12.991 Y-21.013
X-12.978 Y-21.008
X-12.972 Y-20.995
G3 X-13.047 I-0.037 J0. F600.
X-12.972 I0.037 J0.
G1 X-12.978 Y-20.981 F1016.
X-12.991 Y-20.976
X-13.01 Y-20.995
G0 Z5.
Z-9.568
G1 Z-11.25 F1016.
X-12.991 Y-21.013
X-12.978 Y-21.008
X-12.972 Y-20.995
G3 X-13.047 I-0.037 J0. F600.
X-12.972 I0.037 J0.
G1 X-12.978 Y-20.981 F1016.
X-12.991 Y-20.976
X-13.01 Y-20.995
G0 Z5.
Z-9.818
G1 Z-11.5 F1016.
X-12.991 Y-21.013
X-12.978 Y-21.008
X-12.972 Y-20.995
G3 X-13.047 I-0.037 J0. F600.
X-12.972 I0.037 J0.
G1 X-12.978 Y-20.981 F1016.
X-12.991 Y-20.976
X-13.01 Y-20.995
G0 Z5.
Z-10.068
G1 Z-11.75 F1016.
X-12.991 Y-21.013
X-12.978 Y-21.008
X-12.972 Y-20.995
G3 X-13.047 I-0.037 J0. F600.
X-12.972 I0.037 J0.
G1 X-12.978 Y-20.981 F1016.
X-12.991 Y-20.976
X-13.01 Y-20.995
G0 Z5.
Z-10.318
G1 Z-12. F1016.
X-12.991 Y-21.013
X-12.978 Y-21.008
X-12.972 Y-20.995
G3 X-13.047 I-0.037 J0. F600.
X-12.972 I0.037 J0.
G1 X-12.978 Y-20.981 F1016.
X-12.991 Y-20.976
X-13.01 Y-20.995
G0 Z5.
Z-10.568
G1 Z-12.25 F1016.
X-12.991 Y-21.013
X-12.978 Y-21.008
X-12.972 Y-20.995
G3 X-13.047 I-0.037 J0. F600.
X-12.972 I0.037 J0.
G1 X-12.978 Y-20.981 F1016.
X-12.991 Y-20.976
X-13.01 Y-20.995
G0 Z5.
Z-10.818
G1 Z-12.5 F1016.
X-12.991 Y-21.013
X-12.978 Y-21.008
X-12.972 Y-20.995
G3 X-13.047 I-0.037 J0. F600.
X-12.972 I0.037 J0.
G1 X-12.978 Y-20.981 F1016.
X-12.991 Y-20.976
X-13.01 Y-20.995
G0 Z5.
Z-11.068
G1 Z-12.75 F1016.
X-12.991 Y-21.013
X-12.978 Y-21.008
X-12.972 Y-20.995
G3 X-13.047 I-0.037 J0. F600.
X-12.972 I0.037 J0.
G1 X-12.978 Y-20.981 F1016.
X-12.991 Y-20.976
X-13.01 Y-20.995
G0 Z5.
Z-11.193
G1 Z-12.875 F1016.
X-12.991 Y-21.013
X-12.978 Y-21.008
X-12.972 Y-20.995
G3 X-13.047 I-0.037 J0. F600.
X-12.972 I0.037 J0.
G1 X-12.978 Y-20.981 F1016.
X-12.991 Y-20.976
X-13.01 Y-20.995
G0 Z5.
Z-11.318
G1 Z-13. F1016.
X-12.991 Y-21.013
X-12.978 Y-21.008
X-12.972 Y-20.995
G3 X-13.047 I-0.037 J0. F600.
X-12.972 I0.037 J0.
G1 X-12.978 Y-20.981 F1016.
X-12.991 Y-20.976
X-13.01 Y-20.995
G0 Z5.
X-13.176 Y-2.948
Z-4.568
G1 Z-6.25 F1016.
X-13.158 Y-2.966
X-13.144 Y-2.961
X-13.139 Y-2.948
G3 X-13.214 I-0.038 J0. F600.
X-13.139 I0.038 J0.
G1 X-13.144 Y-2.934 F1016.
X-13.158 Y-2.929
X-13.176 Y-2.948
G0 Z5.
Z-4.818
G1 Z-6.5 F1016.
X-13.158 Y-2.966
X-13.144 Y-2.961
X-13.139 Y-2.948
G3 X-13.214 I-0.038 J0. F600.
X-13.139 I0.038 J0.
G1 X-13.144 Y-2.934 F1016.
X-13.158 Y-2.929
X-13.176 Y-2.948
G0 Z5.
Z-5.068
G1 Z-6.75 F1016.
X-13.158 Y-2.966
X-13.144 Y-2.961
X-13.139 Y-2.948
G3 X-13.214 I-0.038 J0. F600.
X-13.139 I0.038 J0.
G1 X-13.144 Y-2.934 F1016.
X-13.158 Y-2.929
X-13.176 Y-2.948
G0 Z5.
Z-5.318
G1 Z-7. F1016.
X-13.158 Y-2.966
X-13.144 Y-2.961
X-13.139 Y-2.948
G3 X-13.214 I-0.038 J0. F600.
X-13.139 I0.038 J0.
G1 X-13.144 Y-2.934 F1016.
X-13.158 Y-2.929
X-13.176 Y-2.948
G0 Z5.
Z-5.568
G1 Z-7.25 F1016.
X-13.158 Y-2.966
X-13.144 Y-2.961
X-13.139 Y-2.948
G3 X-13.214 I-0.038 J0. F600.
X-13.139 I0.038 J0.
G1 X-13.144 Y-2.934 F1016.
X-13.158 Y-2.929
X-13.176 Y-2.948
G0 Z5.
Z-5.818
G1 Z-7.5 F1016.
X-13.158 Y-2.966
X-13.144 Y-2.961
X-13.139 Y-2.948
G3 X-13.214 I-0.038 J0. F600.
X-13.139 I0.038 J0.
G1 X-13.144 Y-2.934 F1016.
X-13.158 Y-2.929
X-13.176 Y-2.948
G0 Z5.
Z-6.068
G1 Z-7.75 F1016.
X-13.158 Y-2.966
X-13.144 Y-2.961
X-13.139 Y-2.948
G3 X-13.214 I-0.038 J0. F600.
X-13.139 I0.038 J0.
G1 X-13.144 Y-2.934 F1016.
X-13.158 Y-2.929
X-13.176 Y-2.948
G0 Z5.
Z-6.318
G1 Z-8. F1016.
X-13.158 Y-2.966
X-13.144 Y-2.961
X-13.139 Y-2.948
G3 X-13.214 I-0.038 J0. F600.
X-13.139 I0.038 J0.
G1 X-13.144 Y-2.934 F1016.
X-13.158 Y-2.929
X-13.176 Y-2.948
G0 Z5.
Z-6.568
G1 Z-8.25 F1016.
X-13.158 Y-2.966
X-13.144 Y-2.961
X-13.139 Y-2.948
G3 X-13.214 I-0.038 J0. F600.
X-13.139 I0.038 J0.
G1 X-13.144 Y-2.934 F1016.
X-13.158 Y-2.929
X-13.176 Y-2.948
G0 Z5.
Z-6.818
G1 Z-8.5 F1016.
X-13.158 Y-2.966
X-13.144 Y-2.961
X-13.139 Y-2.948
G3 X-13.214 I-0.038 J0. F600.
X-13.139 I0.038 J0.
G1 X-13.144 Y-2.934 F1016.
X-13.158 Y-2.929
X-13.176 Y-2.948
G0 Z5.
Z-7.068
G1 Z-8.75 F1016.
X-13.158 Y-2.966
X-13.144 Y-2.961
X-13.139 Y-2.948
G3 X-13.214 I-0.038 J0. F600.
X-13.139 I0.038 J0.
G1 X-13.144 Y-2.934 F1016.
X-13.158 Y-2.929
X-13.176 Y-2.948
G0 Z5.
Z-7.318
G1 Z-9. F1016.
X-13.158 Y-2.966
X-13.144 Y-2.961
X-13.139 Y-2.948
G3 X-13.214 I-0.038 J0. F600.
X-13.139 I0.038 J0.
G1 X-13.144 Y-2.934 F1016.
X-13.158 Y-2.929
X-13.176 Y-2.948
G0 Z5.
Z-7.568
G1 Z-9.25 F1016.
X-13.158 Y-2.966
X-13.144 Y-2.961
X-13.139 Y-2.948
G3 X-13.214 I-0.038 J0. F600.
X-13.139 I0.038 J0.
G1 X-13.144 Y-2.934 F1016.
X-13.158 Y-2.929
X-13.176 Y-2.948
G0 Z5.
Z-7.818
G1 Z-9.5 F1016.
X-13.158 Y-2.966
X-13.144 Y-2.961
X-13.139 Y-2.948
G3 X-13.214 I-0.038 J0. F600.
X-13.139 I0.038 J0.
G1 X-13.144 Y-2.934 F1016.
X-13.158 Y-2.929
X-13.176 Y-2.948
G0 Z5.
Z-8.068
G1 Z-9.75 F1016.
X-13.158 Y-2.966
X-13.144 Y-2.961
X-13.139 Y-2.948
G3 X-13.214 I-0.038 J0. F600.
X-13.139 I0.038 J0.
G1 X-13.144 Y-2.934 F1016.
X-13.158 Y-2.929
X-13.176 Y-2.948
G0 Z5.
Z-8.318
G1 Z-10. F1016.
X-13.158 Y-2.966
X-13.144 Y-2.961
X-13.139 Y-2.948
G3 X-13.214 I-0.038 J0. F600.
X-13.139 I0.038 J0.
G1 X-13.144 Y-2.934 F1016.
X-13.158 Y-2.929
X-13.176 Y-2.948
G0 Z5.
Z-8.568
G1 Z-10.25 F1016.
X-13.158 Y-2.966
X-13.144 Y-2.961
X-13.139 Y-2.948
G3 X-13.214 I-0.038 J0. F600.
X-13.139 I0.038 J0.
G1 X-13.144 Y-2.934 F1016.
X-13.158 Y-2.929
X-13.176 Y-2.948
G0 Z5.
Z-8.818
G1 Z-10.5 F1016.
X-13.158 Y-2.966
X-13.144 Y-2.961
X-13.139 Y-2.948
G3 X-13.214 I-0.038 J0. F600.
X-13.139 I0.038 J0.
G1 X-13.144 Y-2.934 F1016.
X-13.158 Y-2.929
X-13.176 Y-2.948
G0 Z5.
Z-9.068
G1 Z-10.75 F1016.
X-13.158 Y-2.966
X-13.144 Y-2.961
X-13.139 Y-2.948
G3 X-13.214 I-0.038 J0. F600.
X-13.139 I0.038 J0.
G1 X-13.144 Y-2.934 F1016.
X-13.158 Y-2.929
X-13.176 Y-2.948
G0 Z5.
Z-9.318
G1 Z-11. F1016.
X-13.158 Y-2.966
X-13.144 Y-2.961
X-13.139 Y-2.948
G3 X-13.214 I-0.038 J0. F600.
X-13.139 I0.038 J0.
G1 X-13.144 Y-2.934 F1016.
X-13.158 Y-2.929
X-13.176 Y-2.948
G0 Z5.
Z-9.568
G1 Z-11.25 F1016.
X-13.158 Y-2.966
X-13.144 Y-2.961
X-13.139 Y-2.948
G3 X-13.214 I-0.038 J0. F600.
X-13.139 I0.038 J0.
G1 X-13.144 Y-2.934 F1016.
X-13.158 Y-2.929
X-13.176 Y-2.948
G0 Z5.
Z-9.818
G1 Z-11.5 F1016.
X-13.158 Y-2.966
X-13.144 Y-2.961
X-13.139 Y-2.948
G3 X-13.214 I-0.038 J0. F600.
X-13.139 I0.038 J0.
G1 X-13.144 Y-2.934 F1016.
X-13.158 Y-2.929
X-13.176 Y-2.948
G0 Z5.
Z-10.068
G1 Z-11.75 F1016.
X-13.158 Y-2.966
X-13.144 Y-2.961
X-13.139 Y-2.948
G3 X-13.214 I-0.038 J0. F600.
X-13.139 I0.038 J0.
G1 X-13.144 Y-2.934 F1016.
X-13.158 Y-2.929
X-13.176 Y-2.948
G0 Z5.
Z-10.318
G1 Z-12. F1016.
X-13.158 Y-2.966
X-13.144 Y-2.961
X-13.139 Y-2.948
G3 X-13.214 I-0.038 J0. F600.
X-13.139 I0.038 J0.
G1 X-13.144 Y-2.934 F1016.
X-13.158 Y-2.929
X-13.176 Y-2.948
G0 Z5.
Z-10.568
G1 Z-12.25 F1016.
X-13.158 Y-2.966
X-13.144 Y-2.961
X-13.139 Y-2.948
G3 X-13.214 I-0.038 J0. F600.
X-13.139 I0.038 J0.
G1 X-13.144 Y-2.934 F1016.
X-13.158 Y-2.929
X-13.176 Y-2.948
G0 Z5.
Z-10.818
G1 Z-12.5 F1016.
X-13.158 Y-2.966
X-13.144 Y-2.961
X-13.139 Y-2.948
G3 X-13.214 I-0.038 J0. F600.
X-13.139 I0.038 J0.
G1 X-13.144 Y-2.934 F1016.
X-13.158 Y-2.929
X-13.176 Y-2.948
G0 Z5.
Z-11.068
G1 Z-12.75 F1016.
X-13.158 Y-2.966
X-13.144 Y-2.961
X-13.139 Y-2.948
G3 X-13.214 I-0.038 J0. F600.
X-13.139 I0.038 J0.
G1 X-13.144 Y-2.934 F1016.
X-13.158 Y-2.929
X-13.176 Y-2.948
G0 Z5.
Z-11.193
G1 Z-12.875 F1016.
X-13.158 Y-2.966
X-13.144 Y-2.961
X-13.139 Y-2.948
G3 X-13.214 I-0.038 J0. F600.
X-13.139 I0.038 J0.
G1 X-13.144 Y-2.934 F1016.
X-13.158 Y-2.929
X-13.176 Y-2.948
G0 Z5.
Z-11.318
G1 Z-13. F1016.
X-13.158 Y-2.966
X-13.144 Y-2.961
X-13.139 Y-2.948
G3 X-13.214 I-0.038 J0. F600.
X-13.139 I0.038 J0.
G1 X-13.144 Y-2.934 F1016.
X-13.158 Y-2.929
X-13.176 Y-2.948
G0 Z5.
Y9.052
Z-4.568
G1 Z-6.25 F1016.
X-13.158 Y9.034
X-13.144 Y9.039
X-13.139 Y9.052
G3 X-13.214 I-0.038 J0. F600.
X-13.139 I0.038 J0.
G1 X-13.144 Y9.066 F1016.
X-13.158 Y9.071
X-13.176 Y9.052
G0 Z5.
Z-4.818
G1 Z-6.5 F1016.
X-13.158 Y9.034
X-13.144 Y9.039
X-13.139 Y9.052
G3 X-13.214 I-0.038 J0. F600.
X-13.139 I0.038 J0.
G1 X-13.144 Y9.066 F1016.
X-13.158 Y9.071
X-13.176 Y9.052
G0 Z5.
Z-5.068
G1 Z-6.75 F1016.
X-13.158 Y9.034
X-13.144 Y9.039
X-13.139 Y9.052
G3 X-13.214 I-0.038 J0. F600.
X-13.139 I0.038 J0.
G1 X-13.144 Y9.066 F1016.
X-13.158 Y9.071
X-13.176 Y9.052
G0 Z5.
Z-5.318
G1 Z-7. F1016.
X-13.158 Y9.034
X-13.144 Y9.039
X-13.139 Y9.052
G3 X-13.214 I-0.038 J0. F600.
X-13.139 I0.038 J0.
G1 X-13.144 Y9.066 F1016.
X-13.158 Y9.071
X-13.176 Y9.052
G0 Z5.
Z-5.568
G1 Z-7.25 F1016.
X-13.158 Y9.034
X-13.144 Y9.039
X-13.139 Y9.052
G3 X-13.214 I-0.038 J0. F600.
X-13.139 I0.038 J0.
G1 X-13.144 Y9.066 F1016.
X-13.158 Y9.071
X-13.176 Y9.052
G0 Z5.
Z-5.818
G1 Z-7.5 F1016.
X-13.158 Y9.034
X-13.144 Y9.039
X-13.139 Y9.052
G3 X-13.214 I-0.038 J0. F600.
X-13.139 I0.038 J0.
G1 X-13.144 Y9.066 F1016.
X-13.158 Y9.071
X-13.176 Y9.052
G0 Z5.
Z-6.068
G1 Z-7.75 F1016.
X-13.158 Y9.034
X-13.144 Y9.039
X-13.139 Y9.052
G3 X-13.214 I-0.038 J0. F600.
X-13.139 I0.038 J0.
G1 X-13.144 Y9.066 F1016.
X-13.158 Y9.071
X-13.176 Y9.052
G0 Z5.
Z-6.318
G1 Z-8. F1016.
X-13.158 Y9.034
X-13.144 Y9.039
X-13.139 Y9.052
G3 X-13.214 I-0.038 J0. F600.
X-13.139 I0.038 J0.
G1 X-13.144 Y9.066 F1016.
X-13.158 Y9.071
X-13.176 Y9.052
G0 Z5.
Z-6.568
G1 Z-8.25 F1016.
X-13.158 Y9.034
X-13.144 Y9.039
X-13.139 Y9.052
G3 X-13.214 I-0.038 J0. F600.
X-13.139 I0.038 J0.
G1 X-13.144 Y9.066 F1016.
X-13.158 Y9.071
X-13.176 Y9.052
G0 Z5.
Z-6.818
G1 Z-8.5 F1016.
X-13.158 Y9.034
X-13.144 Y9.039
X-13.139 Y9.052
G3 X-13.214 I-0.038 J0. F600.
X-13.139 I0.038 J0.
G1 X-13.144 Y9.066 F1016.
X-13.158 Y9.071
X-13.176 Y9.052
G0 Z5.
Z-7.068
G1 Z-8.75 F1016.
X-13.158 Y9.034
X-13.144 Y9.039
X-13.139 Y9.052
G3 X-13.214 I-0.038 J0. F600.
X-13.139 I0.038 J0.
G1 X-13.144 Y9.066 F1016.
X-13.158 Y9.071
X-13.176 Y9.052
G0 Z5.
Z-7.318
G1 Z-9. F1016.
X-13.158 Y9.034
X-13.144 Y9.039
X-13.139 Y9.052
G3 X-13.214 I-0.038 J0. F600.
X-13.139 I0.038 J0.
G1 X-13.144 Y9.066 F1016.
X-13.158 Y9.071
X-13.176 Y9.052
G0 Z5.
Z-7.568
G1 Z-9.25 F1016.
X-13.158 Y9.034
X-13.144 Y9.039
X-13.139 Y9.052
G3 X-13.214 I-0.038 J0. F600.
X-13.139 I0.038 J0.
G1 X-13.144 Y9.066 F1016.
X-13.158 Y9.071
X-13.176 Y9.052
G0 Z5.
Z-7.818
G1 Z-9.5 F1016.
X-13.158 Y9.034
X-13.144 Y9.039
X-13.139 Y9.052
G3 X-13.214 I-0.038 J0. F600.
X-13.139 I0.038 J0.
G1 X-13.144 Y9.066 F1016.
X-13.158 Y9.071
X-13.176 Y9.052
G0 Z5.
Z-8.068
G1 Z-9.75 F1016.
X-13.158 Y9.034
X-13.144 Y9.039
X-13.139 Y9.052
G3 X-13.214 I-0.038 J0. F600.
X-13.139 I0.038 J0.
G1 X-13.144 Y9.066 F1016.
X-13.158 Y9.071
X-13.176 Y9.052
G0 Z5.
Z-8.318
G1 Z-10. F1016.
X-13.158 Y9.034
X-13.144 Y9.039
X-13.139 Y9.052
G3 X-13.214 I-0.038 J0. F600.
X-13.139 I0.038 J0.
G1 X-13.144 Y9.066 F1016.
X-13.158 Y9.071
X-13.176 Y9.052
G0 Z5.
Z-8.568
G1 Z-10.25 F1016.
X-13.158 Y9.034
X-13.144 Y9.039
X-13.139 Y9.052
G3 X-13.214 I-0.038 J0. F600.
X-13.139 I0.038 J0.
G1 X-13.144 Y9.066 F1016.
X-13.158 Y9.071
X-13.176 Y9.052
G0 Z5.
Z-8.818
G1 Z-10.5 F1016.
X-13.158 Y9.034
X-13.144 Y9.039
X-13.139 Y9.052
G3 X-13.214 I-0.038 J0. F600.
X-13.139 I0.038 J0.
G1 X-13.144 Y9.066 F1016.
X-13.158 Y9.071
X-13.176 Y9.052
G0 Z5.
Z-9.068
G1 Z-10.75 F1016.
X-13.158 Y9.034
X-13.144 Y9.039
X-13.139 Y9.052
G3 X-13.214 I-0.038 J0. F600.
X-13.139 I0.038 J0.
G1 X-13.144 Y9.066 F1016.
X-13.158 Y9.071
X-13.176 Y9.052
G0 Z5.
Z-9.318
G1 Z-11. F1016.
X-13.158 Y9.034
X-13.144 Y9.039
X-13.139 Y9.052
G3 X-13.214 I-0.038 J0. F600.
X-13.139 I0.038 J0.
G1 X-13.144 Y9.066 F1016.
X-13.158 Y9.071
X-13.176 Y9.052
G0 Z5.
Z-9.568
G1 Z-11.25 F1016.
X-13.158 Y9.034
X-13.144 Y9.039
X-13.139 Y9.052
G3 X-13.214 I-0.038 J0. F600.
X-13.139 I0.038 J0.
G1 X-13.144 Y9.066 F1016.
X-13.158 Y9.071
X-13.176 Y9.052
G0 Z5.
Z-9.818
G1 Z-11.5 F1016.
X-13.158 Y9.034
X-13.144 Y9.039
X-13.139 Y9.052
G3 X-13.214 I-0.038 J0. F600.
X-13.139 I0.038 J0.
G1 X-13.144 Y9.066 F1016.
X-13.158 Y9.071
X-13.176 Y9.052
G0 Z5.
Z-10.068
G1 Z-11.75 F1016.
X-13.158 Y9.034
X-13.144 Y9.039
X-13.139 Y9.052
G3 X-13.214 I-0.038 J0. F600.
X-13.139 I0.038 J0.
G1 X-13.144 Y9.066 F1016.
X-13.158 Y9.071
X-13.176 Y9.052
G0 Z5.
Z-10.318
G1 Z-12. F1016.
X-13.158 Y9.034
X-13.144 Y9.039
X-13.139 Y9.052
G3 X-13.214 I-0.038 J0. F600.
X-13.139 I0.038 J0.
G1 X-13.144 Y9.066 F1016.
X-13.158 Y9.071
X-13.176 Y9.052
G0 Z5.
Z-10.568
G1 Z-12.25 F1016.
X-13.158 Y9.034
X-13.144 Y9.039
X-13.139 Y9.052
G3 X-13.214 I-0.038 J0. F600.
X-13.139 I0.038 J0.
G1 X-13.144 Y9.066 F1016.
X-13.158 Y9.071
X-13.176 Y9.052
G0 Z5.
Z-10.818
G1 Z-12.5 F1016.
X-13.158 Y9.034
X-13.144 Y9.039
X-13.139 Y9.052
G3 X-13.214 I-0.038 J0. F600.
X-13.139 I0.038 J0.
G1 X-13.144 Y9.066 F1016.
X-13.158 Y9.071
X-13.176 Y9.052
G0 Z5.
Z-11.068
G1 Z-12.75 F1016.
X-13.158 Y9.034
X-13.144 Y9.039
X-13.139 Y9.052
G3 X-13.214 I-0.038 J0. F600.
X-13.139 I0.038 J0.
G1 X-13.144 Y9.066 F1016.
X-13.158 Y9.071
X-13.176 Y9.052
G0 Z5.
Z-11.193
G1 Z-12.875 F1016.
X-13.158 Y9.034
X-13.144 Y9.039
X-13.139 Y9.052
G3 X-13.214 I-0.038 J0. F600.
X-13.139 I0.038 J0.
G1 X-13.144 Y9.066 F1016.
X-13.158 Y9.071
X-13.176 Y9.052
G0 Z5.
Z-11.318
G1 Z-13. F1016.
X-13.158 Y9.034
X-13.144 Y9.039
X-13.139 Y9.052
G3 X-13.214 I-0.038 J0. F600.
X-13.139 I0.038 J0.
G1 X-13.144 Y9.066 F1016.
X-13.158 Y9.071
X-13.176 Y9.052
G0 Z5.
Y19.052
Z-4.568
G1 Z-6.25 F1016.
X-13.158 Y19.034
X-13.144 Y19.039
X-13.139 Y19.052
G3 X-13.214 I-0.038 J0. F600.
X-13.139 I0.038 J0.
G1 X-13.144 Y19.066 F1016.
X-13.158 Y19.071
X-13.176 Y19.052
G0 Z5.
Z-4.818
G1 Z-6.5 F1016.
X-13.158 Y19.034
X-13.144 Y19.039
X-13.139 Y19.052
G3 X-13.214 I-0.038 J0. F600.
X-13.139 I0.038 J0.
G1 X-13.144 Y19.066 F1016.
X-13.158 Y19.071
X-13.176 Y19.052
G0 Z5.
Z-5.068
G1 Z-6.75 F1016.
X-13.158 Y19.034
X-13.144 Y19.039
X-13.139 Y19.052
G3 X-13.214 I-0.038 J0. F600.
X-13.139 I0.038 J0.
G1 X-13.144 Y19.066 F1016.
X-13.158 Y19.071
X-13.176 Y19.052
G0 Z5.
Z-5.318
G1 Z-7. F1016.
X-13.158 Y19.034
X-13.144 Y19.039
X-13.139 Y19.052
G3 X-13.214 I-0.038 J0. F600.
X-13.139 I0.038 J0.
G1 X-13.144 Y19.066 F1016.
X-13.158 Y19.071
X-13.176 Y19.052
G0 Z5.
Z-5.568
G1 Z-7.25 F1016.
X-13.158 Y19.034
X-13.144 Y19.039
X-13.139 Y19.052
G3 X-13.214 I-0.038 J0. F600.
X-13.139 I0.038 J0.
G1 X-13.144 Y19.066 F1016.
X-13.158 Y19.071
X-13.176 Y19.052
G0 Z5.
Z-5.818
G1 Z-7.5 F1016.
X-13.158 Y19.034
X-13.144 Y19.039
X-13.139 Y19.052
G3 X-13.214 I-0.038 J0. F600.
X-13.139 I0.038 J0.
G1 X-13.144 Y19.066 F1016.
X-13.158 Y19.071
X-13.176 Y19.052
G0 Z5.
Z-6.068
G1 Z-7.75 F1016.
X-13.158 Y19.034
X-13.144 Y19.039
X-13.139 Y19.052
G3 X-13.214 I-0.038 J0. F600.
X-13.139 I0.038 J0.
G1 X-13.144 Y19.066 F1016.
X-13.158 Y19.071
X-13.176 Y19.052
G0 Z5.
Z-6.318
G1 Z-8. F1016.
X-13.158 Y19.034
X-13.144 Y19.039
X-13.139 Y19.052
G3 X-13.214 I-0.038 J0. F600.
X-13.139 I0.038 J0.
G1 X-13.144 Y19.066 F1016.
X-13.158 Y19.071
X-13.176 Y19.052
G0 Z5.
Z-6.568
G1 Z-8.25 F1016.
X-13.158 Y19.034
X-13.144 Y19.039
X-13.139 Y19.052
G3 X-13.214 I-0.038 J0. F600.
X-13.139 I0.038 J0.
G1 X-13.144 Y19.066 F1016.
X-13.158 Y19.071
X-13.176 Y19.052
G0 Z5.
Z-6.818
G1 Z-8.5 F1016.
X-13.158 Y19.034
X-13.144 Y19.039
X-13.139 Y19.052
G3 X-13.214 I-0.038 J0. F600.
X-13.139 I0.038 J0.
G1 X-13.144 Y19.066 F1016.
X-13.158 Y19.071
X-13.176 Y19.052
G0 Z5.
Z-7.068
G1 Z-8.75 F1016.
X-13.158 Y19.034
X-13.144 Y19.039
X-13.139 Y19.052
G3 X-13.214 I-0.038 J0. F600.
X-13.139 I0.038 J0.
G1 X-13.144 Y19.066 F1016.
X-13.158 Y19.071
X-13.176 Y19.052
G0 Z5.
Z-7.318
G1 Z-9. F1016.
X-13.158 Y19.034
X-13.144 Y19.039
X-13.139 Y19.052
G3 X-13.214 I-0.038 J0. F600.
X-13.139 I0.038 J0.
G1 X-13.144 Y19.066 F1016.
X-13.158 Y19.071
X-13.176 Y19.052
G0 Z5.
Z-7.568
G1 Z-9.25 F1016.
X-13.158 Y19.034
X-13.144 Y19.039
X-13.139 Y19.052
G3 X-13.214 I-0.038 J0. F600.
X-13.139 I0.038 J0.
G1 X-13.144 Y19.066 F1016.
X-13.158 Y19.071
X-13.176 Y19.052
G0 Z5.
Z-7.818
G1 Z-9.5 F1016.
X-13.158 Y19.034
X-13.144 Y19.039
X-13.139 Y19.052
G3 X-13.214 I-0.038 J0. F600.
X-13.139 I0.038 J0.
G1 X-13.144 Y19.066 F1016.
X-13.158 Y19.071
X-13.176 Y19.052
G0 Z5.
Z-8.068
G1 Z-9.75 F1016.
X-13.158 Y19.034
X-13.144 Y19.039
X-13.139 Y19.052
G3 X-13.214 I-0.038 J0. F600.
X-13.139 I0.038 J0.
G1 X-13.144 Y19.066 F1016.
X-13.158 Y19.071
X-13.176 Y19.052
G0 Z5.
Z-8.318
G1 Z-10. F1016.
X-13.158 Y19.034
X-13.144 Y19.039
X-13.139 Y19.052
G3 X-13.214 I-0.038 J0. F600.
X-13.139 I0.038 J0.
G1 X-13.144 Y19.066 F1016.
X-13.158 Y19.071
X-13.176 Y19.052
G0 Z5.
Z-8.568
G1 Z-10.25 F1016.
X-13.158 Y19.034
X-13.144 Y19.039
X-13.139 Y19.052
G3 X-13.214 I-0.038 J0. F600.
X-13.139 I0.038 J0.
G1 X-13.144 Y19.066 F1016.
X-13.158 Y19.071
X-13.176 Y19.052
G0 Z5.
Z-8.818
G1 Z-10.5 F1016.
X-13.158 Y19.034
X-13.144 Y19.039
X-13.139 Y19.052
G3 X-13.214 I-0.038 J0. F600.
X-13.139 I0.038 J0.
G1 X-13.144 Y19.066 F1016.
X-13.158 Y19.071
X-13.176 Y19.052
G0 Z5.
Z-9.068
G1 Z-10.75 F1016.
X-13.158 Y19.034
X-13.144 Y19.039
X-13.139 Y19.052
G3 X-13.214 I-0.038 J0. F600.
X-13.139 I0.038 J0.
G1 X-13.144 Y19.066 F1016.
X-13.158 Y19.071
X-13.176 Y19.052
G0 Z5.
Z-9.318
G1 Z-11. F1016.
X-13.158 Y19.034
X-13.144 Y19.039
X-13.139 Y19.052
G3 X-13.214 I-0.038 J0. F600.
X-13.139 I0.038 J0.
G1 X-13.144 Y19.066 F1016.
X-13.158 Y19.071
X-13.176 Y19.052
G0 Z5.
Z-9.568
G1 Z-11.25 F1016.
X-13.158 Y19.034
X-13.144 Y19.039
X-13.139 Y19.052
G3 X-13.214 I-0.038 J0. F600.
X-13.139 I0.038 J0.
G1 X-13.144 Y19.066 F1016.
X-13.158 Y19.071
X-13.176 Y19.052
G0 Z5.
Z-9.818
G1 Z-11.5 F1016.
X-13.158 Y19.034
X-13.144 Y19.039
X-13.139 Y19.052
G3 X-13.214 I-0.038 J0. F600.
X-13.139 I0.038 J0.
G1 X-13.144 Y19.066 F1016.
X-13.158 Y19.071
X-13.176 Y19.052
G0 Z5.
Z-10.068
G1 Z-11.75 F1016.
X-13.158 Y19.034
X-13.144 Y19.039
X-13.139 Y19.052
G3 X-13.214 I-0.038 J0. F600.
X-13.139 I0.038 J0.
G1 X-13.144 Y19.066 F1016.
X-13.158 Y19.071
X-13.176 Y19.052
G0 Z5.
Z-10.318
G1 Z-12. F1016.
X-13.158 Y19.034
X-13.144 Y19.039
X-13.139 Y19.052
G3 X-13.214 I-0.038 J0. F600.
X-13.139 I0.038 J0.
G1 X-13.144 Y19.066 F1016.
X-13.158 Y19.071
X-13.176 Y19.052
G0 Z5.
Z-10.568
G1 Z-12.25 F1016.
X-13.158 Y19.034
X-13.144 Y19.039
X-13.139 Y19.052
G3 X-13.214 I-0.038 J0. F600.
X-13.139 I0.038 J0.
G1 X-13.144 Y19.066 F1016.
X-13.158 Y19.071
X-13.176 Y19.052
G0 Z5.
Z-10.818
G1 Z-12.5 F1016.
X-13.158 Y19.034
X-13.144 Y19.039
X-13.139 Y19.052
G3 X-13.214 I-0.038 J0. F600.
X-13.139 I0.038 J0.
G1 X-13.144 Y19.066 F1016.
X-13.158 Y19.071
X-13.176 Y19.052
G0 Z5.
Z-11.068
G1 Z-12.75 F1016.
X-13.158 Y19.034
X-13.144 Y19.039
X-13.139 Y19.052
G3 X-13.214 I-0.038 J0. F600.
X-13.139 I0.038 J0.
G1 X-13.144 Y19.066 F1016.
X-13.158 Y19.071
X-13.176 Y19.052
G0 Z5.
Z-11.193
G1 Z-12.875 F1016.
X-13.158 Y19.034
X-13.144 Y19.039
X-13.139 Y19.052
G3 X-13.214 I-0.038 J0. F600.
X-13.139 I0.038 J0.
G1 X-13.144 Y19.066 F1016.
X-13.158 Y19.071
X-13.176 Y19.052
G0 Z5.
Z-11.318
G1 Z-13. F1016.
X-13.158 Y19.034
X-13.144 Y19.039
X-13.139 Y19.052
G3 X-13.214 I-0.038 J0. F600.
X-13.139 I0.038 J0.
G1 X-13.144 Y19.066 F1016.
X-13.158 Y19.071
X-13.176 Y19.052
G0 Z10.

(ID 832)
G55
G0 X-25.091 Y-1.312
Z9.
Z-4.25
G1 Z-5.932 F1016.
G18 G2 X-24.773 Z-6.25 I0.318 K0.
G1 X-24.615
G17 G3 X-24.297 Y-0.995 I0. J0.317
X-25.622 I-0.663 J0. F600.
X-24.297 I0.663 J0.
X-24.615 Y-0.677 I-0.317 J0. F1016.
G1 X-24.773
G18 G3 X-25.091 Z-5.932 I0. K0.318
G0 Z-1.
Y-1.312
Z-4.5
G1 Z-6.182 F1016.
G2 X-24.773 Z-6.5 I0.318 K0.
G1 X-24.615
G17 G3 X-24.297 Y-0.995 I0. J0.317
X-25.622 I-0.663 J0. F600.
X-24.297 I0.663 J0.
X-24.615 Y-0.677 I-0.317 J0. F1016.
G1 X-24.773
G18 G3 X-25.091 Z-6.182 I0. K0.318
G0 Z-1.
Y-1.312
Z-4.75
G1 Z-6.432 F1016.
G2 X-24.773 Z-6.75 I0.318 K0.
G1 X-24.615
G17 G3 X-24.297 Y-0.995 I0. J0.317
X-25.622 I-0.663 J0. F600.
X-24.297 I0.663 J0.
X-24.615 Y-0.677 I-0.317 J0. F1016.
G1 X-24.773
G18 G3 X-25.091 Z-6.432 I0. K0.318
G0 Z-1.
Y-1.312
Z-5.
G1 Z-6.682 F1016.
G2 X-24.773 Z-7. I0.318 K0.
G1 X-24.615
G17 G3 X-24.297 Y-0.995 I0. J0.317
X-25.622 I-0.663 J0. F600.
X-24.297 I0.663 J0.
X-24.615 Y-0.677 I-0.317 J0. F1016.
G1 X-24.773
G18 G3 X-25.091 Z-6.682 I0. K0.318
G0 Z-1.
Y-1.312
Z-5.25
G1 Z-6.932 F1016.
G2 X-24.773 Z-7.25 I0.318 K0.
G1 X-24.615
G17 G3 X-24.297 Y-0.995 I0. J0.317
X-25.622 I-0.663 J0. F600.
X-24.297 I0.663 J0.
X-24.615 Y-0.677 I-0.317 J0. F1016.
G1 X-24.773
G18 G3 X-25.091 Z-6.932 I0. K0.318
G0 Z-1.
Y-1.312
Z-5.5
G1 Z-7.182 F1016.
G2 X-24.773 Z-7.5 I0.318 K0.
G1 X-24.615
G17 G3 X-24.297 Y-0.995 I0. J0.317
X-25.622 I-0.663 J0. F600.
X-24.297 I0.663 J0.
X-24.615 Y-0.677 I-0.317 J0. F1016.
G1 X-24.773
G18 G3 X-25.091 Z-7.182 I0. K0.318
G0 Z-1.
Y-1.312
Z-5.75
G1 Z-7.432 F1016.
G2 X-24.773 Z-7.75 I0.318 K0.
G1 X-24.615
G17 G3 X-24.297 Y-0.995 I0. J0.317
X-25.622 I-0.663 J0. F600.
X-24.297 I0.663 J0.
X-24.615 Y-0.677 I-0.317 J0. F1016.
G1 X-24.773
G18 G3 X-25.091 Z-7.432 I0. K0.318
G0 Z-1.
Y-1.312
Z-6.
G1 Z-7.682 F1016.
G2 X-24.773 Z-8. I0.318 K0.
G1 X-24.615
G17 G3 X-24.297 Y-0.995 I0. J0.317
X-25.622 I-0.663 J0. F600.
X-24.297 I0.663 J0.
X-24.615 Y-0.677 I-0.317 J0. F1016.
G1 X-24.773
G18 G3 X-25.091 Z-7.682 I0. K0.318
G0 Z-1.
Y-1.312
Z-6.25
G1 Z-7.932 F1016.
G2 X-24.773 Z-8.25 I0.318 K0.
G1 X-24.615
G17 G3 X-24.297 Y-0.995 I0. J0.317
X-25.622 I-0.663 J0. F600.
X-24.297 I0.663 J0.
X-24.615 Y-0.677 I-0.317 J0. F1016.
G1 X-24.773
G18 G3 X-25.091 Z-7.932 I0. K0.318
G0 Z-1.
Y-1.312
Z-6.5
G1 Z-8.182 F1016.
G2 X-24.773 Z-8.5 I0.318 K0.
G1 X-24.615
G17 G3 X-24.297 Y-0.995 I0. J0.317
X-25.622 I-0.663 J0. F600.
X-24.297 I0.663 J0.
X-24.615 Y-0.677 I-0.317 J0. F1016.
G1 X-24.773
G18 G3 X-25.091 Z-8.182 I0. K0.318
G0 Z-1.
Y-1.312
Z-6.75
G1 Z-8.432 F1016.
G2 X-24.773 Z-8.75 I0.318 K0.
G1 X-24.615
G17 G3 X-24.297 Y-0.995 I0. J0.317
X-25.622 I-0.663 J0. F600.
X-24.297 I0.663 J0.
X-24.615 Y-0.677 I-0.317 J0. F1016.
G1 X-24.773
G18 G3 X-25.091 Z-8.432 I0. K0.318
G0 Z-1.
Y-1.312
Z-7.
G1 Z-8.682 F1016.
G2 X-24.773 Z-9. I0.318 K0.
G1 X-24.615
G17 G3 X-24.297 Y-0.995 I0. J0.317
X-25.622 I-0.663 J0. F600.
X-24.297 I0.663 J0.
X-24.615 Y-0.677 I-0.317 J0. F1016.
G1 X-24.773
G18 G3 X-25.091 Z-8.682 I0. K0.318
G0 Z-1.
Y-1.312
Z-7.25
G1 Z-8.932 F1016.
G2 X-24.773 Z-9.25 I0.318 K0.
G1 X-24.615
G17 G3 X-24.297 Y-0.995 I0. J0.317
X-25.622 I-0.663 J0. F600.
X-24.297 I0.663 J0.
X-24.615 Y-0.677 I-0.317 J0. F1016.
G1 X-24.773
G18 G3 X-25.091 Z-8.932 I0. K0.318
G0 Z-1.
Y-1.312
Z-7.5
G1 Z-9.182 F1016.
G2 X-24.773 Z-9.5 I0.318 K0.
G1 X-24.615
G17 G3 X-24.297 Y-0.995 I0. J0.317
X-25.622 I-0.663 J0. F600.
X-24.297 I0.663 J0.
X-24.615 Y-0.677 I-0.317 J0. F1016.
G1 X-24.773
G18 G3 X-25.091 Z-9.182 I0. K0.318
G0 Z-1.
Y-1.312
Z-7.75
G1 Z-9.432 F1016.
G2 X-24.773 Z-9.75 I0.318 K0.
G1 X-24.615
G17 G3 X-24.297 Y-0.995 I0. J0.317
X-25.622 I-0.663 J0. F600.
X-24.297 I0.663 J0.
X-24.615 Y-0.677 I-0.317 J0. F1016.
G1 X-24.773
G18 G3 X-25.091 Z-9.432 I0. K0.318
G0 Z-1.
Y-1.312
Z-8.
G1 Z-9.682 F1016.
G2 X-24.773 Z-10. I0.318 K0.
G1 X-24.615
G17 G3 X-24.297 Y-0.995 I0. J0.317
X-25.622 I-0.663 J0. F600.
X-24.297 I0.663 J0.
X-24.615 Y-0.677 I-0.317 J0. F1016.
G1 X-24.773
G18 G3 X-25.091 Z-9.682 I0. K0.318
G0 Z-1.
Y-1.312
Z-8.25
G1 Z-9.932 F1016.
G2 X-24.773 Z-10.25 I0.318 K0.
G1 X-24.615
G17 G3 X-24.297 Y-0.995 I0. J0.317
X-25.622 I-0.663 J0. F600.
X-24.297 I0.663 J0.
X-24.615 Y-0.677 I-0.317 J0. F1016.
G1 X-24.773
G18 G3 X-25.091 Z-9.932 I0. K0.318
G0 Z-1.
Y-1.312
Z-8.5
G1 Z-10.182 F1016.
G2 X-24.773 Z-10.5 I0.318 K0.
G1 X-24.615
G17 G3 X-24.297 Y-0.995 I0. J0.317
X-25.622 I-0.663 J0. F600.
X-24.297 I0.663 J0.
X-24.615 Y-0.677 I-0.317 J0. F1016.
G1 X-24.773
G18 G3 X-25.091 Z-10.182 I0. K0.318
G0 Z-1.
Y-1.312
Z-8.75
G1 Z-10.432 F1016.
G2 X-24.773 Z-10.75 I0.318 K0.
G1 X-24.615
G17 G3 X-24.297 Y-0.995 I0. J0.317
X-25.622 I-0.663 J0. F600.
X-24.297 I0.663 J0.
X-24.615 Y-0.677 I-0.317 J0. F1016.
G1 X-24.773
G18 G3 X-25.091 Z-10.432 I0. K0.318
G0 Z-1.
Y-1.312
Z-9.
G1 Z-10.682 F1016.
G2 X-24.773 Z-11. I0.318 K0.
G1 X-24.615
G17 G3 X-24.297 Y-0.995 I0. J0.317
X-25.622 I-0.663 J0. F600.
X-24.297 I0.663 J0.
X-24.615 Y-0.677 I-0.317 J0. F1016.
G1 X-24.773
G18 G3 X-25.091 Z-10.682 I0. K0.318
G0 Z-1.
Y-1.312
Z-9.25
G1 Z-10.932 F1016.
G2 X-24.773 Z-11.25 I0.318 K0.
G1 X-24.615
G17 G3 X-24.297 Y-0.995 I0. J0.317
X-25.622 I-0.663 J0. F600.
X-24.297 I0.663 J0.
X-24.615 Y-0.677 I-0.317 J0. F1016.
G1 X-24.773
G18 G3 X-25.091 Z-10.932 I0. K0.318
G0 Z-1.
Y-1.312
Z-9.5
G1 Z-11.182 F1016.
G2 X-24.773 Z-11.5 I0.318 K0.
G1 X-24.615
G17 G3 X-24.297 Y-0.995 I0. J0.317
X-25.622 I-0.663 J0. F600.
X-24.297 I0.663 J0.
X-24.615 Y-0.677 I-0.317 J0. F1016.
G1 X-24.773
G18 G3 X-25.091 Z-11.182 I0. K0.318
G0 Z-1.
Y-1.312
Z-9.75
G1 Z-11.432 F1016.
G2 X-24.773 Z-11.75 I0.318 K0.
G1 X-24.615
G17 G3 X-24.297 Y-0.995 I0. J0.317
X-25.622 I-0.663 J0. F600.
X-24.297 I0.663 J0.
X-24.615 Y-0.677 I-0.317 J0. F1016.
G1 X-24.773
G18 G3 X-25.091 Z-11.432 I0. K0.318
G0 Z-1.
Y-1.312
Z-10.
G1 Z-11.682 F1016.
G2 X-24.773 Z-12. I0.318 K0.
G1 X-24.615
G17 G3 X-24.297 Y-0.995 I0. J0.317
X-25.622 I-0.663 J0. F600.
X-24.297 I0.663 J0.
X-24.615 Y-0.677 I-0.317 J0. F1016.
G1 X-24.773
G18 G3 X-25.091 Z-11.682 I0. K0.318
G0 Z-1.
Y-1.312
Z-10.25
G1 Z-11.932 F1016.
G2 X-24.773 Z-12.25 I0.318 K0.
G1 X-24.615
G17 G3 X-24.297 Y-0.995 I0. J0.317
X-25.622 I-0.663 J0. F600.
X-24.297 I0.663 J0.
X-24.615 Y-0.677 I-0.317 J0. F1016.
G1 X-24.773
G18 G3 X-25.091 Z-11.932 I0. K0.318
G0 Z-1.
Y-1.312
Z-10.5
G1 Z-12.182 F1016.
G2 X-24.773 Z-12.5 I0.318 K0.
G1 X-24.615
G17 G3 X-24.297 Y-0.995 I0. J0.317
X-25.622 I-0.663 J0. F600.
X-24.297 I0.663 J0.
X-24.615 Y-0.677 I-0.317 J0. F1016.
G1 X-24.773
G18 G3 X-25.091 Z-12.182 I0. K0.318
G0 Z-1.
Y-1.312
Z-10.75
G1 Z-12.432 F1016.
G2 X-24.773 Z-12.75 I0.318 K0.
G1 X-24.615
G17 G3 X-24.297 Y-0.995 I0. J0.317
X-25.622 I-0.663 J0. F600.
X-24.297 I0.663 J0.
X-24.615 Y-0.677 I-0.317 J0. F1016.
G1 X-24.773
G18 G3 X-25.091 Z-12.432 I0. K0.318
G0 Z-1.
Y-1.312
Z-11.
G1 Z-12.682 F1016.
G2 X-24.773 Z-13. I0.318 K0.
G1 X-24.615
G17 G3 X-24.297 Y-0.995 I0. J0.317
X-25.622 I-0.663 J0. F600.
X-24.297 I0.663 J0.
X-24.615 Y-0.677 I-0.317 J0. F1016.
G1 X-24.773
G18 G3 X-25.091 Z-12.682 I0. K0.318
G0 Z9.
G17

(OD 832)
G55
G0 Z15.
X-23.591 Y-1.312
Z-4.25
G1 Z-5.932 F1016.
G18 G2 X-23.273 Z-6.25 I0.318 K0.
G1 X-23.115
G17 G3 X-22.797 Y-0.995 I0. J0.317
X-27.122 I-2.163 J0. F600.
X-22.797 I2.163 J0.
X-23.115 Y-0.677 I-0.317 J0. F1016.
G1 X-23.273
G18 G3 X-23.591 Z-5.932 I0. K0.318
G0 Z5.
Y-1.312
Z-4.5
G1 Z-6.182 F1016.
G2 X-23.273 Z-6.5 I0.318 K0.
G1 X-23.115
G17 G3 X-22.797 Y-0.995 I0. J0.317
X-27.122 I-2.163 J0. F600.
X-22.797 I2.163 J0.
X-23.115 Y-0.677 I-0.317 J0. F1016.
G1 X-23.273
G18 G3 X-23.591 Z-6.182 I0. K0.318
G0 Z5.
Y-1.312
Z-4.75
G1 Z-6.432 F1016.
G2 X-23.273 Z-6.75 I0.318 K0.
G1 X-23.115
G17 G3 X-22.797 Y-0.995 I0. J0.317
X-27.122 I-2.163 J0. F600.
X-22.797 I2.163 J0.
X-23.115 Y-0.677 I-0.317 J0. F1016.
G1 X-23.273
G18 G3 X-23.591 Z-6.432 I0. K0.318
G0 Z5.
Y-1.312
Z-5.
G1 Z-6.682 F1016.
G2 X-23.273 Z-7. I0.318 K0.
G1 X-23.115
G17 G3 X-22.797 Y-0.995 I0. J0.317
X-27.122 I-2.163 J0. F600.
X-22.797 I2.163 J0.
X-23.115 Y-0.677 I-0.317 J0. F1016.
G1 X-23.273
G18 G3 X-23.591 Z-6.682 I0. K0.318
G0 Z5.
Y-1.312
Z-5.25
G1 Z-6.932 F1016.
G2 X-23.273 Z-7.25 I0.318 K0.
G1 X-23.115
G17 G3 X-22.797 Y-0.995 I0. J0.317
X-27.122 I-2.163 J0. F600.
X-22.797 I2.163 J0.
X-23.115 Y-0.677 I-0.317 J0. F1016.
G1 X-23.273
G18 G3 X-23.591 Z-6.932 I0. K0.318
G0 Z5.
Y-1.312
Z-5.5
G1 Z-7.182 F1016.
G2 X-23.273 Z-7.5 I0.318 K0.
G1 X-23.115
G17 G3 X-22.797 Y-0.995 I0. J0.317
X-27.122 I-2.163 J0. F600.
X-22.797 I2.163 J0.
X-23.115 Y-0.677 I-0.317 J0. F1016.
G1 X-23.273
G18 G3 X-23.591 Z-7.182 I0. K0.318
G0 Z5.
Y-1.312
Z-5.75
G1 Z-7.432 F1016.
G2 X-23.273 Z-7.75 I0.318 K0.
G1 X-23.115
G17 G3 X-22.797 Y-0.995 I0. J0.317
X-27.122 I-2.163 J0. F600.
X-22.797 I2.163 J0.
X-23.115 Y-0.677 I-0.317 J0. F1016.
G1 X-23.273
G18 G3 X-23.591 Z-7.432 I0. K0.318
G0 Z5.
Y-1.312
Z-6.
G1 Z-7.682 F1016.
G2 X-23.273 Z-8. I0.318 K0.
G1 X-23.115
G17 G3 X-22.797 Y-0.995 I0. J0.317
X-27.122 I-2.163 J0. F600.
X-22.797 I2.163 J0.
X-23.115 Y-0.677 I-0.317 J0. F1016.
G1 X-23.273
G18 G3 X-23.591 Z-7.682 I0. K0.318
G0 Z5.
Y-1.312
Z-6.25
G1 Z-7.932 F1016.
G2 X-23.273 Z-8.25 I0.318 K0.
G1 X-23.115
G17 G3 X-22.797 Y-0.995 I0. J0.317
X-27.122 I-2.163 J0. F600.
X-22.797 I2.163 J0.
X-23.115 Y-0.677 I-0.317 J0. F1016.
G1 X-23.273
G18 G3 X-23.591 Z-7.932 I0. K0.318
G0 Z5.
Y-1.312
Z-6.5
G1 Z-8.182 F1016.
G2 X-23.273 Z-8.5 I0.318 K0.
G1 X-23.115
G17 G3 X-22.797 Y-0.995 I0. J0.317
X-27.122 I-2.163 J0. F600.
X-22.797 I2.163 J0.
X-23.115 Y-0.677 I-0.317 J0. F1016.
G1 X-23.273
G18 G3 X-23.591 Z-8.182 I0. K0.318
G0 Z5.
Y-1.312
Z-6.75
G1 Z-8.432 F1016.
G2 X-23.273 Z-8.75 I0.318 K0.
G1 X-23.115
G17 G3 X-22.797 Y-0.995 I0. J0.317
X-27.122 I-2.163 J0. F600.
X-22.797 I2.163 J0.
X-23.115 Y-0.677 I-0.317 J0. F1016.
G1 X-23.273
G18 G3 X-23.591 Z-8.432 I0. K0.318
G0 Z5.
Y-1.312
Z-7.
G1 Z-8.682 F1016.
G2 X-23.273 Z-9. I0.318 K0.
G1 X-23.115
G17 G3 X-22.797 Y-0.995 I0. J0.317
X-27.122 I-2.163 J0. F600.
X-22.797 I2.163 J0.
X-23.115 Y-0.677 I-0.317 J0. F1016.
G1 X-23.273
G18 G3 X-23.591 Z-8.682 I0. K0.318
G0 Z5.
Y-1.312
Z-7.25
G1 Z-8.932 F1016.
G2 X-23.273 Z-9.25 I0.318 K0.
G1 X-23.115
G17 G3 X-22.797 Y-0.995 I0. J0.317
X-27.122 I-2.163 J0. F600.
X-22.797 I2.163 J0.
X-23.115 Y-0.677 I-0.317 J0. F1016.
G1 X-23.273
G18 G3 X-23.591 Z-8.932 I0. K0.318
G0 Z5.
Y-1.312
Z-7.5
G1 Z-9.182 F1016.
G2 X-23.273 Z-9.5 I0.318 K0.
G1 X-23.115
G17 G3 X-22.797 Y-0.995 I0. J0.317
X-27.122 I-2.163 J0. F600.
X-22.797 I2.163 J0.
X-23.115 Y-0.677 I-0.317 J0. F1016.
G1 X-23.273
G18 G3 X-23.591 Z-9.182 I0. K0.318
G0 Z5.
Y-1.312
Z-7.75
G1 Z-9.432 F1016.
G2 X-23.273 Z-9.75 I0.318 K0.
G1 X-23.115
G17 G3 X-22.797 Y-0.995 I0. J0.317
X-27.122 I-2.163 J0. F600.
X-22.797 I2.163 J0.
X-23.115 Y-0.677 I-0.317 J0. F1016.
G1 X-23.273
G18 G3 X-23.591 Z-9.432 I0. K0.318
G0 Z5.
Y-1.312
Z-8.
G1 Z-9.682 F1016.
G2 X-23.273 Z-10. I0.318 K0.
G1 X-23.115
G17 G3 X-22.797 Y-0.995 I0. J0.317
X-27.122 I-2.163 J0. F600.
X-22.797 I2.163 J0.
X-23.115 Y-0.677 I-0.317 J0. F1016.
G1 X-23.273
G18 G3 X-23.591 Z-9.682 I0. K0.318
G0 Z5.
Y-1.312
Z-8.25
G1 Z-9.932 F1016.
G2 X-23.273 Z-10.25 I0.318 K0.
G1 X-23.115
G17 G3 X-22.797 Y-0.995 I0. J0.317
X-27.122 I-2.163 J0. F600.
X-22.797 I2.163 J0.
X-23.115 Y-0.677 I-0.317 J0. F1016.
G1 X-23.273
G18 G3 X-23.591 Z-9.932 I0. K0.318
G0 Z5.
Y-1.312
Z-8.375
G1 Z-10.057 F1016.
G2 X-23.273 Z-10.375 I0.318 K0.
G1 X-23.115
G17 G3 X-22.797 Y-0.995 I0. J0.317
X-27.122 I-2.163 J0. F600.
X-22.797 I2.163 J0.
X-23.115 Y-0.677 I-0.317 J0. F1016.
G1 X-23.273
G18 G3 X-23.591 Z-10.057 I0. K0.318
G0 Z5.
Y-1.312
Z-8.5
G1 Z-10.182 F1016.
G2 X-23.273 Z-10.5 I0.318 K0.
G1 X-23.115
G17 G3 X-22.797 Y-0.995 I0. J0.317
X-27.122 I-2.163 J0. F600.
X-22.797 I2.163 J0.
X-23.115 Y-0.677 I-0.317 J0. F1016.
G1 X-23.273
G18 G3 X-23.591 Z-10.182 I0. K0.318
G0 Z15.
G17

(SMA GAP)
G55
G0 X-24. Y-25.312
Z15.
Z5.
G1 Z1.25 F40.
Z0.067
G18 G2 X-23.682 Z-0.25 I0.317 K0. F1016.
G1 X-23.365
G17 G3 X-23.047 Y-24.995 I0. J0.318
G1 Y-21.282 F600.
X-26.872
Y-24.995
G2 X-28.46 Y-26.582 I-1.587 J0.
G1 X-41.01
G2 X-42.597 Y-24.995 I0. J1.587
G1 Y23.005
G2 X-41.01 Y24.593 I1.587 J0.
G1 X-8.91
G2 X-7.322 Y23.005 I0. J-1.587
G1 Y-24.995
G2 X-8.91 Y-26.582 I-1.587 J0.
G1 X-21.46
G2 X-23.047 Y-24.995 I0. J1.587
G3 X-23.365 Y-24.677 I-0.317 J0. F1016.
G1 X-23.682
G18 G3 X-24. Z0.067 I0. K0.318
G0 Z5.
Y-25.312
G1 Z1. F40.
Z-0.183
G2 X-23.682 Z-0.5 I0.317 K0. F1016.
G1 X-23.365
G17 G3 X-23.047 Y-24.995 I0. J0.318
G1 Y-21.282 F600.
X-26.872
Y-24.995
G2 X-28.46 Y-26.582 I-1.587 J0.
G1 X-41.01
G2 X-42.597 Y-24.995 I0. J1.587
G1 Y23.005
G2 X-41.01 Y24.593 I1.587 J0.
G1 X-8.91
G2 X-7.322 Y23.005 I0. J-1.587
G1 Y-24.995
G2 X-8.91 Y-26.582 I-1.587 J0.
G1 X-21.46
G2 X-23.047 Y-24.995 I0. J1.587
G3 X-23.365 Y-24.677 I-0.317 J0. F1016.
G1 X-23.682
G18 G3 X-24. Z-0.183 I0. K0.317
G0 Z5.
Y-25.312
G1 Z0.75 F40.
Z-0.433
G2 X-23.682 Z-0.75 I0.317 K0. F1016.
G1 X-23.365
G17 G3 X-23.047 Y-24.995 I0. J0.318
G1 Y-21.282 F600.
X-26.872
Y-24.995
G2 X-28.46 Y-26.582 I-1.587 J0.
G1 X-41.01
G2 X-42.597 Y-24.995 I0. J1.587
G1 Y23.005
G2 X-41.01 Y24.593 I1.587 J0.
G1 X-8.91
G2 X-7.322 Y23.005 I0. J-1.587
G1 Y-24.995
G2 X-8.91 Y-26.582 I-1.587 J0.
G1 X-21.46
G2 X-23.047 Y-24.995 I0. J1.587
G3 X-23.365 Y-24.677 I-0.317 J0. F1016.
G1 X-23.682
G18 G3 X-24. Z-0.433 I0. K0.317
G0 Z5.
Y-25.312
G1 Z0.5 F40.
Z-0.683
G2 X-23.682 Z-1. I0.317 K0. F1016.
G1 X-23.365
G17 G3 X-23.047 Y-24.995 I0. J0.318
G1 Y-21.282 F600.
X-26.872
Y-24.995
G2 X-28.46 Y-26.582 I-1.587 J0.
G1 X-41.01
G2 X-42.597 Y-24.995 I0. J1.587
G1 Y23.005
G2 X-41.01 Y24.593 I1.587 J0.
G1 X-8.91
G2 X-7.322 Y23.005 I0. J-1.587
G1 Y-24.995
G2 X-8.91 Y-26.582 I-1.587 J0.
G1 X-21.46
G2 X-23.047 Y-24.995 I0. J1.587
G3 X-23.365 Y-24.677 I-0.317 J0. F1016.
G1 X-23.682
G18 G3 X-24. Z-0.683 I0. K0.317
G0 Z5.
Y-25.312
G1 Z0.25 F40.
Z-0.933
G2 X-23.682 Z-1.25 I0.317 K0. F1016.
G1 X-23.365
G17 G3 X-23.047 Y-24.995 I0. J0.318
G1 Y-21.282 F600.
X-26.872
Y-24.995
G2 X-28.46 Y-26.582 I-1.587 J0.
G1 X-41.01
G2 X-42.597 Y-24.995 I0. J1.587
G1 Y23.005
G2 X-41.01 Y24.593 I1.587 J0.
G1 X-8.91
G2 X-7.322 Y23.005 I0. J-1.587
G1 Y-24.995
G2 X-8.91 Y-26.582 I-1.587 J0.
G1 X-21.46
G2 X-23.047 Y-24.995 I0. J1.587
G3 X-23.365 Y-24.677 I-0.317 J0. F1016.
G1 X-23.682
G18 G3 X-24. Z-0.933 I0. K0.317
G0 Z5.
Y-25.312
G1 Z0. F40.
Z-1.183
G2 X-23.682 Z-1.5 I0.317 K0. F1016.
G1 X-23.365
G17 G3 X-23.047 Y-24.995 I0. J0.318
G1 Y-21.282 F600.
X-26.872
Y-24.995
G2 X-28.46 Y-26.582 I-1.587 J0.
G1 X-41.01
G2 X-42.597 Y-24.995 I0. J1.587
G1 Y23.005
G2 X-41.01 Y24.593 I1.587 J0.
G1 X-8.91
G2 X-7.322 Y23.005 I0. J-1.587
G1 Y-24.995
G2 X-8.91 Y-26.582 I-1.587 J0.
G1 X-21.46
G2 X-23.047 Y-24.995 I0. J1.587
G3 X-23.365 Y-24.677 I-0.317 J0. F1016.
G1 X-23.682
G18 G3 X-24. Z-1.183 I0. K0.317
G0 Z5.
Y-25.312
G1 Z-0.25 F40.
Z-1.433
G2 X-23.682 Z-1.75 I0.317 K0. F1016.
G1 X-23.365
G17 G3 X-23.047 Y-24.995 I0. J0.318
G1 Y-21.282 F600.
X-26.872
Y-24.995
G2 X-28.46 Y-26.582 I-1.587 J0.
G1 X-41.01
G2 X-42.597 Y-24.995 I0. J1.587
G1 Y23.005
G2 X-41.01 Y24.593 I1.587 J0.
G1 X-8.91
G2 X-7.322 Y23.005 I0. J-1.587
G1 Y-24.995
G2 X-8.91 Y-26.582 I-1.587 J0.
G1 X-21.46
G2 X-23.047 Y-24.995 I0. J1.587
G3 X-23.365 Y-24.677 I-0.317 J0. F1016.
G1 X-23.682
G18 G3 X-24. Z-1.433 I0. K0.317
G0 Z5.
Y-25.312
G1 Z-0.5 F40.
Z-1.683
G2 X-23.682 Z-2. I0.317 K0. F1016.
G1 X-23.365
G17 G3 X-23.047 Y-24.995 I0. J0.318
G1 Y-21.282 F600.
X-26.872
Y-24.995
G2 X-28.46 Y-26.582 I-1.587 J0.
G1 X-41.01
G2 X-42.597 Y-24.995 I0. J1.587
G1 Y23.005
G2 X-41.01 Y24.593 I1.587 J0.
G1 X-8.91
G2 X-7.322 Y23.005 I0. J-1.587
G1 Y-24.995
G2 X-8.91 Y-26.582 I-1.587 J0.
G1 X-21.46
G2 X-23.047 Y-24.995 I0. J1.587
G3 X-23.365 Y-24.677 I-0.317 J0. F1016.
G1 X-23.682
G18 G3 X-24. Z-1.683 I0. K0.317
G0 Z5.
Y-25.312
G1 Z-0.75 F40.
Z-1.933
G2 X-23.682 Z-2.25 I0.317 K0. F1016.
G1 X-23.365
G17 G3 X-23.047 Y-24.995 I0. J0.318
G1 Y-21.282 F600.
X-26.872
Y-24.995
G2 X-28.46 Y-26.582 I-1.587 J0.
G1 X-41.01
G2 X-42.597 Y-24.995 I0. J1.587
G1 Y23.005
G2 X-41.01 Y24.593 I1.587 J0.
G1 X-8.91
G2 X-7.322 Y23.005 I0. J-1.587
G1 Y-24.995
G2 X-8.91 Y-26.582 I-1.587 J0.
G1 X-21.46
G2 X-23.047 Y-24.995 I0. J1.587
G3 X-23.365 Y-24.677 I-0.317 J0. F1016.
G1 X-23.682
G18 G3 X-24. Z-1.933 I0. K0.317
G0 Z5.
Y-25.312
G1 Z-1. F40.
Z-2.183
G2 X-23.682 Z-2.5 I0.317 K0. F1016.
G1 X-23.365
G17 G3 X-23.047 Y-24.995 I0. J0.318
G1 Y-21.282 F600.
X-26.872
Y-24.995
G2 X-28.46 Y-26.582 I-1.587 J0.
G1 X-41.01
G2 X-42.597 Y-24.995 I0. J1.587
G1 Y23.005
G2 X-41.01 Y24.593 I1.587 J0.
G1 X-8.91
G2 X-7.322 Y23.005 I0. J-1.587
G1 Y-24.995
G2 X-8.91 Y-26.582 I-1.587 J0.
G1 X-21.46
G2 X-23.047 Y-24.995 I0. J1.587
G3 X-23.365 Y-24.677 I-0.317 J0. F1016.
G1 X-23.682
G18 G3 X-24. Z-2.183 I0. K0.318
G0 Z5.
Y-25.312
G1 Z-1.25 F40.
Z-2.433
G2 X-23.682 Z-2.75 I0.317 K0. F1016.
G1 X-23.365
G17 G3 X-23.047 Y-24.995 I0. J0.318
G1 Y-21.282 F600.
X-26.872
Y-24.995
G2 X-28.46 Y-26.582 I-1.587 J0.
G1 X-41.01
G2 X-42.597 Y-24.995 I0. J1.587
G1 Y23.005
G2 X-41.01 Y24.593 I1.587 J0.
G1 X-8.91
G2 X-7.322 Y23.005 I0. J-1.587
G1 Y-24.995
G2 X-8.91 Y-26.582 I-1.587 J0.
G1 X-21.46
G2 X-23.047 Y-24.995 I0. J1.587
G3 X-23.365 Y-24.677 I-0.317 J0. F1016.
G1 X-23.682
G18 G3 X-24. Z-2.433 I0. K0.318
G0 Z5.
Y-25.312
G1 Z-1.5 F40.
Z-2.683
G2 X-23.682 Z-3. I0.317 K0. F1016.
G1 X-23.365
G17 G3 X-23.047 Y-24.995 I0. J0.318
G1 Y-21.282 F600.
X-26.872
Y-24.995
G2 X-28.46 Y-26.582 I-1.587 J0.
G1 X-41.01
G2 X-42.597 Y-24.995 I0. J1.587
G1 Y23.005
G2 X-41.01 Y24.593 I1.587 J0.
G1 X-8.91
G2 X-7.322 Y23.005 I0. J-1.587
G1 Y-24.995
G2 X-8.91 Y-26.582 I-1.587 J0.
G1 X-21.46
G2 X-23.047 Y-24.995 I0. J1.587
G3 X-23.365 Y-24.677 I-0.317 J0. F1016.
G1 X-23.682
G18 G3 X-24. Z-2.683 I0. K0.318
G0 Z5.
Y-25.312
G1 Z-1.75 F40.
Z-2.933
G2 X-23.682 Z-3.25 I0.317 K0. F1016.
G1 X-23.365
G17 G3 X-23.047 Y-24.995 I0. J0.318
G1 Y-21.282 F600.
X-26.872
Y-24.995
G2 X-28.46 Y-26.582 I-1.587 J0.
G1 X-41.01
G2 X-42.597 Y-24.995 I0. J1.587
G1 Y23.005
G2 X-41.01 Y24.593 I1.587 J0.
G1 X-8.91
G2 X-7.322 Y23.005 I0. J-1.587
G1 Y-24.995
G2 X-8.91 Y-26.582 I-1.587 J0.
G1 X-21.46
G2 X-23.047 Y-24.995 I0. J1.587
G3 X-23.365 Y-24.677 I-0.317 J0. F1016.
G1 X-23.682
G18 G3 X-24. Z-2.933 I0. K0.318
G0 Z5.
Y-25.312
G1 Z-2. F40.
Z-3.183
G2 X-23.682 Z-3.5 I0.317 K0. F1016.
G1 X-23.365
G17 G3 X-23.047 Y-24.995 I0. J0.318
G1 Y-21.282 F600.
X-26.872
Y-24.995
G2 X-28.46 Y-26.582 I-1.587 J0.
G1 X-41.01
G2 X-42.597 Y-24.995 I0. J1.587
G1 Y23.005
G2 X-41.01 Y24.593 I1.587 J0.
G1 X-8.91
G2 X-7.322 Y23.005 I0. J-1.587
G1 Y-24.995
G2 X-8.91 Y-26.582 I-1.587 J0.
G1 X-21.46
G2 X-23.047 Y-24.995 I0. J1.587
G3 X-23.365 Y-24.677 I-0.317 J0. F1016.
G1 X-23.682
G18 G3 X-24. Z-3.183 I0. K0.318
G0 Z5.
Y-25.312
G1 Z-2.25 F40.
Z-3.433
G2 X-23.682 Z-3.75 I0.317 K0. F1016.
G1 X-23.365
G17 G3 X-23.047 Y-24.995 I0. J0.318
G1 Y-21.282 F600.
X-26.872
Y-24.995
G2 X-28.46 Y-26.582 I-1.587 J0.
G1 X-41.01
G2 X-42.597 Y-24.995 I0. J1.587
G1 Y23.005
G2 X-41.01 Y24.593 I1.587 J0.
G1 X-8.91
G2 X-7.322 Y23.005 I0. J-1.587
G1 Y-24.995
G2 X-8.91 Y-26.582 I-1.587 J0.
G1 X-21.46
G2 X-23.047 Y-24.995 I0. J1.587
G3 X-23.365 Y-24.677 I-0.317 J0. F1016.
G1 X-23.682
G18 G3 X-24. Z-3.433 I0. K0.318
G0 Z5.
Y-25.312
G1 Z-2.5 F40.
Z-3.683
G2 X-23.682 Z-4. I0.317 K0. F1016.
G1 X-23.365
G17 G3 X-23.047 Y-24.995 I0. J0.318
G1 Y-21.282 F600.
X-26.872
Y-24.995
G2 X-28.46 Y-26.582 I-1.587 J0.
G1 X-41.01
G2 X-42.597 Y-24.995 I0. J1.587
G1 Y23.005
G2 X-41.01 Y24.593 I1.587 J0.
G1 X-8.91
G2 X-7.322 Y23.005 I0. J-1.587
G1 Y-24.995
G2 X-8.91 Y-26.582 I-1.587 J0.
G1 X-21.46
G2 X-23.047 Y-24.995 I0. J1.587
G3 X-23.365 Y-24.677 I-0.317 J0. F1016.
G1 X-23.682
G18 G3 X-24. Z-3.683 I0. K0.318
G0 Z5.
Y-25.312
G1 Z-2.75 F40.
Z-3.933
G2 X-23.682 Z-4.25 I0.317 K0. F1016.
G1 X-23.365
G17 G3 X-23.047 Y-24.995 I0. J0.318
G1 Y-21.282 F600.
X-26.872
Y-24.995
G2 X-28.46 Y-26.582 I-1.587 J0.
G1 X-41.01
G2 X-42.597 Y-24.995 I0. J1.587
G1 Y23.005
G2 X-41.01 Y24.593 I1.587 J0.
G1 X-8.91
G2 X-7.322 Y23.005 I0. J-1.587
G1 Y-24.995
G2 X-8.91 Y-26.582 I-1.587 J0.
G1 X-21.46
G2 X-23.047 Y-24.995 I0. J1.587
G3 X-23.365 Y-24.677 I-0.317 J0. F1016.
G1 X-23.682
G18 G3 X-24. Z-3.933 I0. K0.318
G0 Z5.
Y-25.312
G1 Z-3. F40.
Z-4.183
G2 X-23.682 Z-4.5 I0.317 K0. F1016.
G1 X-23.365
G17 G3 X-23.047 Y-24.995 I0. J0.318
G1 Y-21.282 F600.
X-26.872
Y-24.995
G2 X-28.46 Y-26.582 I-1.587 J0.
G1 X-41.01
G2 X-42.597 Y-24.995 I0. J1.587
G1 Y23.005
G2 X-41.01 Y24.593 I1.587 J0.
G1 X-8.91
G2 X-7.322 Y23.005 I0. J-1.587
G1 Y-24.995
G2 X-8.91 Y-26.582 I-1.587 J0.
G1 X-21.46
G2 X-23.047 Y-24.995 I0. J1.587
G3 X-23.365 Y-24.677 I-0.317 J0. F1016.
G1 X-23.682
G18 G3 X-24. Z-4.183 I0. K0.318
G0 Z5.
Y-25.312
G1 Z-3.25 F40.
Z-4.433
G2 X-23.682 Z-4.75 I0.317 K0. F1016.
G1 X-23.365
G17 G3 X-23.047 Y-24.995 I0. J0.318
G1 Y-21.282 F600.
X-26.872
Y-24.995
G2 X-28.46 Y-26.582 I-1.587 J0.
G1 X-41.01
G2 X-42.597 Y-24.995 I0. J1.587
G1 Y23.005
G2 X-41.01 Y24.593 I1.587 J0.
G1 X-8.91
G2 X-7.322 Y23.005 I0. J-1.587
G1 Y-24.995
G2 X-8.91 Y-26.582 I-1.587 J0.
G1 X-21.46
G2 X-23.047 Y-24.995 I0. J1.587
G3 X-23.365 Y-24.677 I-0.317 J0. F1016.
G1 X-23.682
G18 G3 X-24. Z-4.433 I0. K0.318
G0 Z5.
Y-25.312
G1 Z-3.5 F40.
Z-4.683
G2 X-23.682 Z-5. I0.317 K0. F1016.
G1 X-23.365
G17 G3 X-23.047 Y-24.995 I0. J0.318
G1 Y-21.282 F600.
X-26.872
Y-24.995
G2 X-28.46 Y-26.582 I-1.587 J0.
G1 X-41.01
G2 X-42.597 Y-24.995 I0. J1.587
G1 Y23.005
G2 X-41.01 Y24.593 I1.587 J0.
G1 X-8.91
G2 X-7.322 Y23.005 I0. J-1.587
G1 Y-24.995
